; generated by PrusaSlicer 2.7.1+MacOS-x64 on 2024-03-18 at 15:37:27 UTC


;
;
; 

; external perimeters extrusion width = 0.45mm
; perimeters extrusion width = 0.45mm
; infill extrusion width = 0.45mm
; solid infill extrusion width = 0.45mm
; top infill extrusion width = 0.40mm
; first layer extrusion width = 0.42mm

; external perimeters extrusion width = 0.45mm
; perimeters extrusion width = 0.45mm
; infill extrusion width = 0.45mm
; solid infill extrusion width = 0.45mm
; top infill extrusion width = 0.40mm
; first layer extrusion width = 0.42mm

M73 P0 R49
M73 Q0 S49
M201 X1000 Y1000 Z200 E5000 ; sets maximum accelerations, mm/sec^2
M203 X200 Y200 Z12 E120 ; sets maximum feedrates, mm / sec
M204 S1250 T1250 ; sets acceleration (S) and retract acceleration (R), mm/sec^2
M205 X8.00 Y8.00 Z0.40 E4.50 ; sets the jerk limits, mm/sec
M205 S0 T0 ; sets the minimum extruding and travel feed rate, mm/sec

; printing object outerbox2.stl id:0 copy 0
; stop printing object outerbox2.stl id:0 copy 0
; printing object smboxlid2.stl id:1 copy 0
; stop printing object smboxlid2.stl id:1 copy 0

;TYPE:Custom
M862.3 P "MK3S" ; printer model check
M862.1 P0.4 ; nozzle diameter check
M115 U3.13.2 ; tell printer latest fw version
G90 ; use absolute coordinates
M83 ; extruder relative mode
M104 S215 ; set extruder temp
M140 S60 ; set bed temp
M190 S60 ; wait for bed temp
M109 S215 ; wait for extruder temp
G28 W ; home all without mesh bed level
G80 X105.334 Y83.1344 W71.8779 H43.7312 ; mesh bed levelling

G1 Z0.2 F720
G1 Y-3 F1000 ; go outside print area
G92 E0
G1 X60 E9 F1000 ; intro line
G1 X100 E12.5 F1000 ; intro line

G92 E0
M221 S95

; Don't change E values below. Excessive value can damage the printer.
M907 E430 ; set extruder motor current
G21 ; set units to millimeters
G90 ; use absolute coordinates
M83 ; use relative distances for extrusion
M900 K0.05 ; Filament gcode LA 1.5
M900 K30 ; Filament gcode LA 1.0

M107
;LAYER_CHANGE
;Z:0.2
;HEIGHT:0.2
;BEFORE_LAYER_CHANGE
G92 E0.0
;0.2


G1 E-.8 F2100
G1 Z.2 F720
;AFTER_LAYER_CHANGE
;0.2
G1 X105.915 Y84.393 F10800
G1 Z.2 F720
G1 E.8 F2100
M204 S800
;TYPE:Skirt/Brim
;WIDTH:0.42
G1 F1200
G1 X106.96 Y83.517 E.04275
G1 X107.9 Y83.323 E.03009
G1 X142.489 Y83.355 E1.08451
G1 X175.036 Y88.755 E1.03444
M73 P0 R48
G1 X176.261 Y89.355 E.04277
G1 X177.024 Y91.1 E.05971
G1 X177.024 Y118.9 E.87165
G1 X176.632 Y120.207 E.04278
G1 X175.036 Y121.245 E.05969
G1 X142.489 Y126.645 E1.03444
G1 X107.9 Y126.677 E1.08451
G1 X106.593 Y126.285 E.04278
G1 X105.717 Y125.24 E.04275
G1 X105.523 Y124.3 E.03009
G1 X105.523 Y85.7 E1.21028
G1 X105.897 Y84.45 E.04091
M73 Q0 S48
M204 S1000
; printing object smboxlid2.stl id:1 copy 0
;WIPE_START
G1 F8640
G1 X105.915 Y84.393 E-.0138
G1 X106.96 Y83.517 E-.31486
G1 X107.9 Y83.323 E-.22162
G1 X108.981 Y83.324 E-.24972
;WIPE_END
G1 Z.6 F720
G1 X173.86 Y118.113 F10800
G1 Z.2 F720
G1 E.8 F2100
M204 S800
;TYPE:Perimeter
;WIDTH:0.419999
G1 F1200
G1 X148.048 Y118.113 E.80932
G1 X148.048 Y94.736 E.73297
;WIDTH:0.464219
G1 X148.07 Y94.413 E.01134
;WIDTH:0.508439
G1 X148.092 Y94.09 E.01253
G1 X148.083 Y93.589 E.0194
;WIDTH:0.489515
G1 X148.065 Y93.227 E.01346
;WIDTH:0.454757
G1 X148.048 Y92.866 E.01238
;WIDTH:0.419999
G1 X148.048 Y91.887 E.0307
G1 X149.48 Y91.887 E.0449
;WIDTH:0.46498
G1 X149.599 Y91.91 E.00425
;WIDTH:0.509961
G1 X149.717 Y91.932 E.00466
;WIDTH:0.554942
G1 X149.836 Y91.955 E.00516
;WIDTH:0.599922
G1 X149.954 Y91.977 E.00556
G1 X149.913 Y91.996 E.00209
;WIDTH:0.579691
G1 X149.766 Y92.073 E.00741
;WIDTH:0.539768
G1 X149.619 Y92.15 E.00686
;WIDTH:0.499845
G1 X149.471 Y92.227 E.00634
;WIDTH:0.459922
G1 X149.324 Y92.304 E.00575
;WIDTH:0.419999
G1 X149.018 Y92.553 E.01237
G1 X148.781 Y92.868 E.01236
;WIDTH:0.462581
G1 X148.666 Y93.113 E.00944
;WIDTH:0.505162
G1 X148.551 Y93.358 E.0104
G1 X148.528 Y93.616 E.00996
G1 X148.551 Y94.018 E.01548
G1 X148.601 Y94.155 E.00561
;WIDTH:0.472537
G1 X148.765 Y94.438 E.01168
;WIDTH:0.446268
G1 X148.928 Y94.721 E.01095
;WIDTH:0.419999
G1 X149.212 Y94.995 E.01237
G1 X149.553 Y95.192 E.01235
G1 X149.932 Y95.302 E.01237
G1 X150.326 Y95.319 E.01237
G1 X150.713 Y95.241 E.01238
G1 X151.069 Y95.072 E.01236
G1 X151.375 Y94.823 E.01237
G1 X151.612 Y94.508 E.01236
G1 X151.767 Y94.145 E.01238
G1 X151.831 Y93.756 E.01236
G1 X151.8 Y93.363 E.01236
G1 X151.676 Y92.989 E.01235
G1 X151.465 Y92.655 E.01239
G1 X151.069 Y92.304 E.01659
;WIDTH:0.467311
G1 X150.923 Y92.223 E.00589
;WIDTH:0.514623
G1 X150.777 Y92.143 E.00653
;WIDTH:0.561935
G1 X150.63 Y92.062 E.00724
;WIDTH:0.609246
G1 X150.484 Y91.982 E.00784
G1 X150.591 Y91.958 E.00516
;WIDTH:0.561935
G1 X150.699 Y91.934 E.00477
;WIDTH:0.514623
G1 X150.806 Y91.911 E.00429
;WIDTH:0.467311
G1 X150.913 Y91.887 E.00387
;WIDTH:0.419999
G1 X170.994 Y91.887 E.62962
;WIDTH:0.46498
G1 X171.113 Y91.91 E.00425
;WIDTH:0.509961
G1 X171.231 Y91.932 E.00466
;WIDTH:0.554942
G1 X171.35 Y91.955 E.00516
;WIDTH:0.599922
G1 X171.468 Y91.977 E.00556
G1 X171.375 Y92.023 E.00481
;WIDTH:0.554107
G1 X171.283 Y92.069 E.00437
;WIDTH:0.508292
G1 X171.19 Y92.115 E.00401
;WIDTH:0.462477
G1 X170.726 Y92.382 E.01868
;WIDTH:0.419999
G1 X170.406 Y92.714 E.01446
G1 X170.168 Y93.169 E.0161
G1 X170.076 Y93.62 E.01443
G1 X170.107 Y94.013 E.01236
G1 X170.232 Y94.387 E.01236
G1 X170.442 Y94.721 E.01237
G1 X170.726 Y94.995 E.01237
G1 X171.067 Y95.192 E.01235
G1 X171.446 Y95.302 E.01237
G1 X171.84 Y95.319 E.01237
G1 X172.227 Y95.241 E.01238
G1 X172.583 Y95.072 E.01236
G1 X172.889 Y94.823 E.01237
G1 X173.126 Y94.508 E.01236
;WIDTH:0.464219
G1 X173.24 Y94.279 E.00896
;WIDTH:0.508438
G1 X173.353 Y94.05 E.00988
G1 X173.38 Y93.76 E.01127
;WIDTH:0.505162
G1 X173.356 Y93.358 E.01548
G1 X173.273 Y93.173 E.00779
;WIDTH:0.462581
G1 X173.19 Y92.989 E.00704
;WIDTH:0.419999
G1 X172.977 Y92.651 E.01253
G1 X172.583 Y92.304 E.01646
;WIDTH:0.467311
G1 X172.437 Y92.223 E.00589
;WIDTH:0.514623
G1 X172.291 Y92.143 E.00653
;WIDTH:0.561935
G1 X172.144 Y92.062 E.00724
;WIDTH:0.609246
G1 X171.998 Y91.982 E.00784
G1 X172.105 Y91.958 E.00516
;WIDTH:0.561935
G1 X172.213 Y91.934 E.00477
;WIDTH:0.514623
G1 X172.32 Y91.911 E.00429
;WIDTH:0.467311
G1 X172.427 Y91.887 E.00387
;WIDTH:0.419999
G1 X173.86 Y91.887 E.04493
G1 X173.86 Y92.372 E.01521
G1 X173.86 Y92.381 E.00028
;WIDTH:0.461121
G1 X173.839 Y93.125 E.02588
;WIDTH:0.489514
G1 X173.825 Y93.787 E.02459
G1 X173.842 Y94.149 E.01346
;WIDTH:0.454757
G1 X173.86 Y94.51 E.01238
;WIDTH:0.419999
G1 X173.86 Y118.053 E.73817
M204 S1000
G1 X174.237 Y118.49 F10800
M204 S800
;TYPE:External perimeter
G1 F1200
G1 X147.671 Y118.49 E.83296
G1 X147.671 Y91.51 E.84594
G1 X174.237 Y91.51 E.83296
G1 X174.237 Y92.372 E.02703
G1 X174.237 Y118.43 E.81703
M204 S1000
;WIPE_START
G1 F8640
M73 P1 R48
M73 Q1 S48
G1 X174.237 Y118.49 E-.01385
G1 X170.832 Y118.49 E-.78615
;WIPE_END
G1 Z.6 F720
G1 X170.988 Y92.662 F10800
G1 Z.2 F720
G1 E.8 F2100
M204 S800
G1 F1200
G1 X171.014 Y92.638 E.00111
G1 X171.285 Y92.502 E.00951
G1 X171.581 Y92.434 E.00952
G1 X171.885 Y92.44 E.00953
G1 X172.179 Y92.518 E.00954
G1 X172.445 Y92.664 E.00951
G1 X172.669 Y92.869 E.00952
G1 X172.837 Y93.122 E.00952
G1 X172.94 Y93.408 E.00953
G1 X172.971 Y93.711 E.00955
G1 X172.929 Y94.012 E.00953
G1 X172.816 Y94.294 E.00953
G1 X172.639 Y94.541 E.00953
G1 X172.408 Y94.738 E.00952
G1 X172.136 Y94.874 E.00953
G1 X171.84 Y94.942 E.00952
G1 X171.536 Y94.936 E.00953
G1 X171.243 Y94.858 E.00951
G1 X170.976 Y94.712 E.00954
G1 X170.752 Y94.507 E.00952
G1 X170.605 Y94.294 E.00811
G1 X170.482 Y93.968 E.01092
G1 X170.451 Y93.665 E.00955
G1 X170.502 Y93.344 E.01019
G1 X170.74 Y92.889 E.0161
G1 X170.943 Y92.702 E.00865
M204 S1000
G1 X171.468 Y91.977 F10800
M204 S800
;TYPE:Perimeter
;WIDTH:0.609246
G1 F1200
G1 X171.998 Y91.982 E.02496
M204 S1000
;WIPE_START
G1 F8640
G1 X171.468 Y91.977 E-.12238
;WIPE_END
G1 E-.67762 F2100
G1 Z.6 F720
G1 X151.409 Y94.027 F10800
G1 Z.2 F720
G1 E.8 F2100
M204 S800
;TYPE:External perimeter
;WIDTH:0.419999
G1 F1200
G1 X151.302 Y94.294 E.00902
G1 X151.125 Y94.541 E.00953
G1 X150.894 Y94.738 E.00952
G1 X150.622 Y94.874 E.00953
G1 X150.326 Y94.942 E.00952
G1 X150.022 Y94.936 E.00953
G1 X149.729 Y94.858 E.00951
G1 X149.462 Y94.712 E.00954
G1 X149.238 Y94.507 E.00952
G1 X149.07 Y94.254 E.00952
G1 X148.968 Y93.968 E.00952
G1 X148.936 Y93.711 E.00812
G1 X148.979 Y93.364 E.01096
G1 X149.091 Y93.082 E.00951
G1 X149.268 Y92.835 E.00953
G1 X149.499 Y92.638 E.00952
G1 X149.771 Y92.502 E.00953
G1 X150.067 Y92.434 E.00952
G1 X150.371 Y92.44 E.00953
G1 X150.665 Y92.518 E.00954
G1 X150.931 Y92.664 E.00951
G1 X151.155 Y92.869 E.00952
G1 X151.323 Y93.122 E.00952
G1 X151.426 Y93.408 E.00953
G1 X151.457 Y93.711 E.00955
G1 X151.421 Y93.969 E.00817
M204 S1000
;WIPE_START
G1 F8640
G1 X151.409 Y94.027 E-.01368
G1 X151.302 Y94.294 E-.06642
G1 X151.125 Y94.541 E-.07016
G1 X150.894 Y94.738 E-.0701
G1 X150.622 Y94.874 E-.07022
G1 X150.326 Y94.942 E-.07013
G1 X150.022 Y94.936 E-.07021
G1 X149.729 Y94.858 E-.07001
G1 X149.462 Y94.712 E-.07027
G1 X149.238 Y94.507 E-.07011
G1 X149.07 Y94.254 E-.07012
G1 X148.968 Y93.968 E-.07011
G1 X148.958 Y93.889 E-.01846
;WIPE_END
G1 Z.6 F720
G1 X149.954 Y91.977 F10800
G1 Z.2 F720
G1 E.8 F2100
M204 S800
;TYPE:Perimeter
;WIDTH:0.609246
G1 F1200
G1 X150.484 Y91.982 E.02496
M204 S1000
;WIPE_START
G1 F8640
G1 X149.954 Y91.977 E-.12238
;WIPE_END
G1 E-.67762 F2100
G1 Z.6 F720
G1 X148.547 Y92.057 F10800
G1 Z.2 F720
G1 E.8 F2100
M204 S800
;TYPE:Solid infill
;WIDTH:0.42997
G1 F1200
G1 X148.8 Y92.31 E.01152
G1 X148.66 Y92.445 E.00626
G1 X148.549 Y92.607 E.00632
G1 X148.218 Y92.275 E.01509
M204 S1000
;WIPE_START
G1 F8640
G1 X148.549 Y92.607 E-.10825
G1 X148.66 Y92.445 E-.04534
G1 X148.8 Y92.31 E-.04491
G1 X148.547 Y92.057 E-.08262
;WIPE_END
G1 E-.51888 F2100
G1 Z.6 F720
G1 X172.768 Y92.057 F10800
G1 Z.2 F720
G1 E.8 F2100
M204 S800
;WIDTH:0.495415
G1 F1200
G1 X173.673 Y92.962 E.04816
M204 S1000
;WIPE_START
G1 F8640
G1 X172.768 Y92.057 E-.29552
;WIPE_END
G1 E-.50448 F2100
G1 Z.6 F720
G1 X173.319 Y94.511 F10800
G1 Z.2 F720
G1 E.8 F2100
M204 S800
;WIDTH:0.422426
G1 F1200
G1 X173.52 Y94.712 E.00897
G1 X173.52 Y95.249 E.01695
G1 X173.225 Y94.954 E.01316
G1 X172.954 Y95.219 E.01196
G1 X173.52 Y95.785 E.02526
G1 X173.52 Y96.322 E.01695
G1 X172.629 Y95.431 E.03976
G1 X172.504 Y95.497 E.00446
G1 X172.247 Y95.585 E.00857
G1 X173.52 Y96.859 E.05683
G1 X173.52 Y97.396 E.01695
G1 X171.613 Y95.489 E.0851
M204 S1000
;WIPE_START
G1 F8640
G1 X173.52 Y97.396 E-.62272
G1 X173.52 Y96.859 E-.12399
G1 X173.357 Y96.696 E-.05329
;WIPE_END
G1 Z.6 F720
G1 X170.306 Y92.572 F10800
G1 Z.2 F720
G1 E.8 F2100
M204 S800
G1 F1200
G1 X169.961 Y92.226 E.01542
G1 X169.425 Y92.226 E.01691
G1 X169.985 Y92.787 E.02501
G1 X169.861 Y93.023 E.00841
G1 X169.819 Y93.158 E.00446
G1 X168.888 Y92.226 E.04157
G1 X168.351 Y92.226 E.01695
G1 X169.909 Y93.784 E.06953
M204 S1000
;WIPE_START
G1 F8640
G1 X168.351 Y92.226 E-.50876
G1 X168.888 Y92.226 E-.12399
G1 X169.4 Y92.738 E-.16725
;WIPE_END
G1 Z.6 F720
G1 X167.645 Y92.057 F10800
G1 Z.2 F720
G1 E.8 F2100
M204 S800
G1 F1200
G1 X169.811 Y94.223 E.09666
G1 X169.963 Y94.617 E.01333
G1 X170.227 Y94.998 E.01463
G1 X170.577 Y95.31 E.0148
G1 X170.916 Y95.496 E.0122
G1 X171.173 Y95.585 E.00858
G1 X173.52 Y97.932 E.10474
G1 X173.52 Y98.469 E.01695
G1 X167.278 Y92.226 E.27858
G1 X166.741 Y92.226 E.01695
G1 X173.52 Y99.006 E.30255
G1 X173.52 Y99.542 E.01691
G1 X166.204 Y92.226 E.32649
G1 X165.668 Y92.226 E.01691
G1 X173.52 Y100.079 E.35043
G1 X173.52 Y100.616 E.01695
G1 X165.131 Y92.226 E.3744
G1 X164.594 Y92.226 E.01695
G1 X173.52 Y101.153 E.39836
G1 X173.52 Y101.689 E.01691
G1 X164.057 Y92.226 E.42231
G1 X163.521 Y92.226 E.01691
G1 X173.52 Y102.226 E.44625
G1 X173.52 Y102.763 E.01695
G1 X162.984 Y92.226 E.47021
G1 X162.447 Y92.226 E.01695
G1 X173.52 Y103.299 E.49415
G1 X173.52 Y103.836 E.01695
G1 X161.911 Y92.226 E.5181
G1 X161.374 Y92.226 E.01695
G1 X173.52 Y104.373 E.54206
G1 X173.52 Y104.909 E.01691
G1 X160.837 Y92.226 E.566
G1 X160.301 Y92.226 E.01691
G1 X173.52 Y105.446 E.58995
G1 X173.52 Y105.983 E.01695
G1 X159.764 Y92.226 E.61391
G1 X159.227 Y92.226 E.01695
G1 X173.52 Y106.52 E.63788
G1 X173.52 Y107.056 E.01691
G1 X158.69 Y92.226 E.66182
G1 X158.154 Y92.226 E.01691
G1 X173.52 Y107.593 E.68576
G1 X173.52 Y108.13 E.01695
G1 X157.617 Y92.226 E.70973
G1 X157.08 Y92.226 E.01695
G1 X173.52 Y108.666 E.73367
G1 X173.52 Y109.203 E.01695
G1 X156.544 Y92.226 E.75761
G1 X156.007 Y92.226 E.01695
G1 X173.52 Y109.74 E.78157
G1 X173.52 Y110.276 E.01691
G1 X155.47 Y92.226 E.80552
G1 X154.934 Y92.226 E.01691
G1 X173.52 Y110.813 E.82946
G1 X173.52 Y111.35 E.01695
G1 X154.397 Y92.226 E.85342
G1 X153.86 Y92.226 E.01695
M73 P2 R48
M73 Q2 S48
G1 X173.52 Y111.887 E.87739
G1 X173.52 Y112.423 E.01691
G1 X153.323 Y92.226 E.90133
G1 X152.787 Y92.226 E.01691
G1 X173.52 Y112.96 E.92527
G1 X173.52 Y113.497 E.01695
G1 X152.25 Y92.226 E.94924
G1 X151.713 Y92.226 E.01695
G1 X173.52 Y114.033 E.97318
G1 X173.52 Y114.57 E.01695
G1 X152.094 Y93.144 E.95618
G1 X152.136 Y93.313 E.0055
M73 P2 R47
G1 X152.169 Y93.588 E.00874
G1 X152.169 Y93.756 E.0053
G1 X173.52 Y115.107 E.95283
G1 X173.52 Y115.643 E.01691
G1 X152.097 Y94.22 E.95604
G1 X151.948 Y94.608 E.01312
G1 X173.52 Y116.18 E.96269
G1 X173.52 Y116.717 E.01695
G1 X151.73 Y94.926 E.97244
G1 X151.68 Y94.998 E.00277
G1 X151.461 Y95.194 E.00927
G1 X173.52 Y117.254 E.98445
G1 X173.52 Y117.774 E.01641
G1 X151.143 Y95.413 E.99826
G1 X150.991 Y95.496 E.00547
M73 Q2 S47
G1 X150.769 Y95.576 E.00745
G1 X172.967 Y117.774 E.99063
G1 X172.43 Y117.774 E.01695
G1 X150.315 Y95.658 E.98695
G1 X150.058 Y95.658 E.00811
G1 X149.719 Y95.6 E.01085
G1 X171.893 Y117.774 E.98956
G1 X171.357 Y117.774 E.01691
G1 X148.387 Y94.804 E1.02508
G1 X148.387 Y95.341 E.01695
G1 X170.82 Y117.774 E1.00112
G1 X170.283 Y117.774 E.01695
G1 X148.387 Y95.878 E.97715
G1 X148.387 Y96.414 E.01691
G1 X169.747 Y117.774 E.95323
M73 Q3 S47
G1 X169.21 Y117.774 E.01695
M73 P3 R47
G1 X148.387 Y96.951 E.92927
G1 X148.387 Y97.488 E.01695
G1 X168.673 Y117.774 E.9053
G1 X168.136 Y117.774 E.01695
G1 X148.387 Y98.024 E.88136
G1 X148.387 Y98.561 E.01695
G1 X167.6 Y117.774 E.85742
G1 X167.063 Y117.774 E.01695
G1 X148.387 Y99.098 E.83345
G1 X148.387 Y99.634 E.01691
G1 X166.526 Y117.774 E.80951
G1 X165.99 Y117.774 E.01691
G1 X148.387 Y100.171 E.78557
G1 X148.387 Y100.708 E.01695
G1 X165.453 Y117.774 E.7616
G1 X164.916 Y117.774 E.01695
G1 X148.387 Y101.245 E.73764
G1 X148.387 Y101.781 E.01691
G1 X164.38 Y117.774 E.71372
G1 X163.843 Y117.774 E.01695
G1 X148.387 Y102.318 E.68975
G1 X148.387 Y102.855 E.01695
G1 X163.306 Y117.774 E.66579
G1 X162.769 Y117.774 E.01695
G1 X148.387 Y103.391 E.64185
G1 X148.387 Y103.928 E.01695
G1 X162.233 Y117.774 E.61791
G1 X161.696 Y117.774 E.01695
G1 X148.387 Y104.465 E.59394
G1 X148.387 Y105.001 E.01691
G1 X161.159 Y117.774 E.57
G1 X160.623 Y117.774 E.01691
G1 X148.387 Y105.538 E.54606
G1 X148.387 Y106.075 E.01695
G1 X160.086 Y117.774 E.52209
G1 X159.549 Y117.774 E.01695
G1 X148.387 Y106.612 E.49813
G1 X148.387 Y107.148 E.01691
G1 X159.013 Y117.774 E.47421
G1 X158.476 Y117.774 E.01695
G1 X148.387 Y107.685 E.45024
G1 X148.387 Y108.222 E.01695
G1 X157.939 Y117.774 E.42628
G1 X157.402 Y117.774 E.01695
G1 X148.387 Y108.758 E.40233
G1 X148.387 Y109.295 E.01695
G1 X156.866 Y117.774 E.37839
G1 X156.329 Y117.774 E.01695
G1 X148.387 Y109.832 E.35443
G1 X148.387 Y110.368 E.01691
G1 X155.792 Y117.774 E.33049
G1 X155.256 Y117.774 E.01691
G1 X148.387 Y110.905 E.30654
G1 X148.387 Y111.442 E.01695
G1 X154.719 Y117.774 E.28258
G1 X154.182 Y117.774 E.01695
G1 X148.387 Y111.979 E.25861
M73 Q4 S47
G1 X148.387 Y112.515 E.01691
M73 P4 R47
G1 X153.646 Y117.774 E.23469
G1 X153.109 Y117.774 E.01695
G1 X148.387 Y113.052 E.21073
G1 X148.387 Y113.589 E.01695
G1 X152.572 Y117.774 E.18676
G1 X152.035 Y117.774 E.01695
G1 X148.387 Y114.125 E.16282
G1 X148.387 Y114.662 E.01695
G1 X151.499 Y117.774 E.13888
G1 X150.962 Y117.774 E.01695
G1 X148.387 Y115.199 E.11491
G1 X148.387 Y115.736 E.01695
G1 X150.425 Y117.774 E.09095
G1 X149.889 Y117.774 E.01691
G1 X148.387 Y116.272 E.06703
G1 X148.387 Y116.809 E.01695
