; generated by PrusaSlicer 2.7.1+MacOS-x64 on 2024-03-18 at 01:57:20 UTC


;
;
; 

; external perimeters extrusion width = 0.45mm
; perimeters extrusion width = 0.45mm
; infill extrusion width = 0.45mm
; solid infill extrusion width = 0.45mm
; top infill extrusion width = 0.40mm
; first layer extrusion width = 0.42mm

; external perimeters extrusion width = 0.45mm
; perimeters extrusion width = 0.45mm
; infill extrusion width = 0.45mm
; solid infill extrusion width = 0.45mm
; top infill extrusion width = 0.40mm
; first layer extrusion width = 0.42mm

M73 P0 R74
M73 Q0 S75
M201 X1000 Y1000 Z200 E5000 ; sets maximum accelerations, mm/sec^2
M203 X200 Y200 Z12 E120 ; sets maximum feedrates, mm / sec
M204 S1250 T1250 ; sets acceleration (S) and retract acceleration (R), mm/sec^2
M205 X8.00 Y8.00 Z0.40 E4.50 ; sets the jerk limits, mm/sec
M205 S0 T0 ; sets the minimum extruding and travel feed rate, mm/sec

; printing object smboxbottom.stl id:1 copy 0
; stop printing object smboxbottom.stl id:1 copy 0
; printing object outerbox.stl id:0 copy 0
; stop printing object outerbox.stl id:0 copy 0

;TYPE:Custom
M862.3 P "MK3S" ; printer model check
M862.1 P0.4 ; nozzle diameter check
M115 U3.13.2 ; tell printer latest fw version
G90 ; use absolute coordinates
M83 ; extruder relative mode
M104 S215 ; set extruder temp
M140 S60 ; set bed temp
M190 S60 ; wait for bed temp
M109 S215 ; wait for extruder temp
G28 W ; home all without mesh bed level
G80 X105.334 Y83.0344 W69.8853 H43.9312 ; mesh bed levelling

G1 Z0.2 F720
G1 Y-3 F1000 ; go outside print area
G92 E0
G1 X60 E9 F1000 ; intro line
G1 X100 E12.5 F1000 ; intro line

G92 E0
M221 S95

; Don't change E values below. Excessive value can damage the printer.
M907 E430 ; set extruder motor current
G21 ; set units to millimeters
G90 ; use absolute coordinates
M83 ; use relative distances for extrusion
M900 K0.05 ; Filament gcode LA 1.5
M900 K30 ; Filament gcode LA 1.0

M107
;LAYER_CHANGE
;Z:0.2
;HEIGHT:0.2
;BEFORE_LAYER_CHANGE
G92 E0.0
;0.2


G1 E-.8 F2100
G1 Z.2 F720
;AFTER_LAYER_CHANGE
;0.2
G1 X105.915 Y84.293 F10800
G1 Z.2 F720
G1 E.8 F2100
M204 S800
;TYPE:Skirt/Brim
;WIDTH:0.42
G1 F1200
G1 X106.96 Y83.417 E.04275
G1 X107.9 Y83.223 E.03009
G1 X142.449 Y83.249 E1.08326
G1 X172.226 Y87.674 E.94389
G1 X172.873 Y87.855 E.02107
G1 X173.353 Y88.086 E.0167
G1 X174.117 Y88.696 E.03065
G1 X174.568 Y89.301 E.02366
G1 X174.799 Y89.781 E.0167
G1 X174.991 Y90.511 E.02367
G1 X175.031 Y91 E.01538
G1 X175.031 Y119 E.87792
G1 X174.991 Y119.489 E.01538
G1 X174.799 Y120.219 E.02367
G1 X174.568 Y120.699 E.0167
G1 X174.117 Y121.304 E.02366
G1 X173.353 Y121.914 E.03065
G1 X172.873 Y122.145 E.0167
G1 X172.226 Y122.326 E.02107
G1 X142.449 Y126.751 E.94389
G1 X107.9 Y126.777 E1.08326
G1 X106.593 Y126.385 E.04278
G1 X105.717 Y125.34 E.04275
G1 X105.523 Y124.4 E.03009
G1 X105.523 Y85.6 E1.21655
G1 X105.897 Y84.35 E.04091
M204 S1000
; printing object smboxbottom.stl id:1 copy 0
;WIPE_START
G1 F8640
G1 X105.915 Y84.293 E-.0138
G1 X106.96 Y83.417 E-.31486
G1 X107.9 Y83.223 E-.22162
G1 X108.982 Y83.224 E-.24972
;WIPE_END
G1 Z.6 F720
G1 X171.775 Y119.155 F10800
G1 Z.2 F720
M73 Q0 S74
G1 E.8 F2100
M204 S800
;TYPE:Perimeter
;WIDTH:0.419999
G1 F1200
G1 X171.61 Y119.213 E.00548
G1 X143.765 Y119.213 E.87306
G1 X143.694 Y119.205 E.00224
G1 X143.5 Y119.123 E.0066
G1 X143.441 Y118.956 E.00555
G1 X143.441 Y91.111 E.87306
G1 X143.449 Y91.04 E.00224
G1 X143.531 Y90.846 E.0066
G1 X143.698 Y90.787 E.00555
G1 X171.543 Y90.787 E.87306
G1 X171.614 Y90.795 E.00224
G1 X171.808 Y90.877 E.0066
G1 X171.867 Y91.059 E.006
G1 X171.867 Y118.889 E.87259
G1 X171.859 Y118.96 E.00224
G1 X171.8 Y119.1 E.00476
M204 S1000
G1 X171.902 Y119.512 F10800
M204 S800
;TYPE:External perimeter
G1 F1200
G1 X171.631 Y119.59 E.00884
G1 X143.765 Y119.59 E.87372
G1 X143.401 Y119.526 E.01159
G1 X143.198 Y119.364 E.00814
G1 X143.142 Y119.248 E.00404
G1 X143.064 Y118.977 E.00884
G1 X143.064 Y91.111 E.87372
G1 X143.128 Y90.746 E.01162
G1 X143.29 Y90.544 E.00812
G1 X143.406 Y90.488 E.00404
G1 X143.677 Y90.41 E.00884
G1 X171.543 Y90.41 E.87372
G1 X171.908 Y90.474 E.01162
G1 X172.11 Y90.636 E.00812
G1 X172.228 Y90.88 E.0085
G1 X172.244 Y91.059 E.00563
G1 X172.244 Y118.889 E.87259
G1 X172.18 Y119.254 E.01162
G1 X172.018 Y119.456 E.00812
G1 X171.956 Y119.486 E.00216
M204 S1000
;WIPE_START
G1 F8640
G1 X171.902 Y119.512 E-.01384
G1 X171.631 Y119.59 E-.06511
G1 X168.508 Y119.59 E-.72105
;WIPE_END
G1 Z.6 F720
G1 X159.033 Y99.382 F10800
G1 Z.2 F720
G1 E.8 F2100
M204 S800
;TYPE:Perimeter
G1 F1200
G1 X159.589 Y99.546 E.01818
G1 X160.158 Y99.783 E.01933
G1 X160.698 Y100.079 E.01931
G1 X161.204 Y100.43 E.01931
G1 X161.669 Y100.833 E.01929
G1 X162.09 Y101.284 E.01934
G1 X162.46 Y101.776 E.0193
G1 X162.775 Y102.305 E.0193
G1 X163.032 Y102.865 E.01932
G1 X163.229 Y103.448 E.01929
G1 X163.362 Y104.05 E.01933
G1 X163.431 Y104.662 E.01931
G1 X163.434 Y105.278 E.01931
G1 X163.372 Y105.891 E.01932
G1 X163.245 Y106.493 E.01929
G1 X163.054 Y107.079 E.01932
G1 X162.803 Y107.641 E.0193
G1 X162.493 Y108.174 E.01933
G1 X162.128 Y108.67 E.01931
G1 X161.713 Y109.125 E.01931
G1 X161.251 Y109.533 E.01933
G1 X160.749 Y109.89 E.01931
G1 X160.212 Y110.191 E.0193
G1 X159.645 Y110.433 E.01933
G1 X159.057 Y110.614 E.01929
G1 X158.452 Y110.731 E.01932
G1 X157.838 Y110.784 E.01932
G1 X157.222 Y110.771 E.01932
G1 X156.611 Y110.692 E.01932
G1 X156.012 Y110.549 E.01931
G1 X155.432 Y110.343 E.0193
G1 X154.877 Y110.076 E.01931
G1 X154.353 Y109.752 E.01932
G1 X153.866 Y109.375 E.01931
G1 X153.423 Y108.947 E.01931
G1 X153.027 Y108.475 E.01932
G1 X152.684 Y107.964 E.0193
G1 X152.397 Y107.419 E.01931
G1 X152.17 Y106.846 E.01932
G1 X152.005 Y106.253 E.0193
G1 X151.903 Y105.645 E.01933
G1 X151.868 Y105.03 E.01931
G1 X151.897 Y104.415 E.0193
G1 X151.992 Y103.806 E.01933
G1 X152.151 Y103.211 E.01931
G1 X152.359 Y102.671 E.01814
G1 X152.652 Y102.092 E.02035
G1 X152.991 Y101.573 E.01944
G1 X153.382 Y101.097 E.01931
G1 X153.821 Y100.665 E.01931
G1 X154.303 Y100.282 E.0193
G1 X154.824 Y99.953 E.01932
G1 X155.376 Y99.68 E.01931
G1 X155.955 Y99.468 E.01933
G1 X156.552 Y99.319 E.01929
G1 X157.162 Y99.234 E.01931
G1 X157.741 Y99.216 E.01816
G1 X158.388 Y99.26 E.02033
G1 X158.975 Y99.367 E.01871
M204 S1000
G1 X158.92 Y99.741 F10800
M204 S800
;TYPE:External perimeter
G1 F1200
G1 X158.928 Y99.742 E.00025
G1 X159.48 Y99.907 E.01806
G1 X160.011 Y100.13 E.01806
G1 X160.515 Y100.408 E.01805
G1 X160.987 Y100.739 E.01808
G1 X161.421 Y101.117 E.01805
G1 X161.813 Y101.539 E.01806
G1 X162.157 Y102.001 E.01806
G1 X162.45 Y102.497 E.01806
G1 X162.689 Y103.021 E.01806
G1 X162.871 Y103.567 E.01805
G1 X162.994 Y104.13 E.01807
G1 X163.056 Y104.702 E.01804
G1 X163.057 Y105.278 E.01806
G1 X162.997 Y105.851 E.01806
G1 X162.876 Y106.414 E.01806
G1 X162.696 Y106.961 E.01806
G1 X162.459 Y107.486 E.01806
G1 X162.168 Y107.982 E.01803
G1 X161.825 Y108.445 E.01807
G1 X161.436 Y108.869 E.01804
G1 X161.003 Y109.249 E.01806
G1 X160.532 Y109.581 E.01807
G1 X160.029 Y109.861 E.01805
G1 X159.499 Y110.086 E.01805
G1 X158.948 Y110.253 E.01805
G1 X158.382 Y110.361 E.01807
G1 X157.808 Y110.408 E.01806
G1 X157.232 Y110.394 E.01807
G1 X156.662 Y110.318 E.01803
G1 X156.102 Y110.183 E.01806
G1 X155.56 Y109.988 E.01806
G1 X155.041 Y109.737 E.01808
G1 X154.553 Y109.433 E.01803
G1 X154.099 Y109.078 E.01807
G1 X153.686 Y108.677 E.01805
G1 X153.317 Y108.234 E.01808
G1 X152.998 Y107.755 E.01804
G1 X152.732 Y107.245 E.01803
G1 X152.521 Y106.709 E.01806
G1 X152.368 Y106.153 E.01808
G1 X152.276 Y105.585 E.01804
G1 X152.244 Y105.01 E.01806
G1 X152.274 Y104.435 E.01805
G1 X152.364 Y103.866 E.01806
G1 X152.515 Y103.31 E.01806
G1 X152.71 Y102.808 E.01689
G1 X152.987 Y102.263 E.01917
G1 X153.305 Y101.782 E.01808
G1 X153.672 Y101.338 E.01806
G1 X154.084 Y100.935 E.01807
G1 X154.536 Y100.579 E.01804
G1 X155.024 Y100.272 E.01808
G1 X155.541 Y100.02 E.01803
G1 X156.083 Y99.823 E.01808
G1 X156.642 Y99.685 E.01805
G1 X157.212 Y99.608 E.01803
G1 X157.751 Y99.593 E.01691
G1 X158.361 Y99.636 E.01917
G1 X158.861 Y99.73 E.01595
M204 S1000
;WIPE_START
G1 F8640
G1 X158.92 Y99.741 E-.01386
G1 X158.928 Y99.742 E-.00186
G1 X159.48 Y99.907 E-.13303
G1 X160.011 Y100.13 E-.13298
G1 X160.515 Y100.408 E-.1329
G1 X160.987 Y100.739 E-.13311
G1 X161.421 Y101.117 E-.13289
G1 X161.772 Y101.496 E-.11937
;WIPE_END
G1 Z.6 F720
G1 X170.898 Y90.957 F10800
G1 Z.2 F720
G1 E.8 F2100
M204 S800
;TYPE:Solid infill
;WIDTH:0.421248
G1 F1200
G1 X171.528 Y91.587 E.02803
G1 X171.528 Y92.122 E.01683
G1 X170.532 Y91.126 E.04431
G1 X169.997 Y91.126 E.01683
G1 X171.528 Y92.657 E.06811
G1 X171.528 Y93.192 E.01683
G1 X169.462 Y91.126 E.09191
G1 X168.927 Y91.126 E.01683
G1 X171.528 Y93.727 E.11571
G1 X171.528 Y94.262 E.01683
G1 X168.392 Y91.126 E.13952
G1 X167.857 Y91.126 E.01683
G1 X171.528 Y94.797 E.16332
G1 X171.528 Y95.332 E.01683
G1 X167.322 Y91.126 E.18712
G1 X166.787 Y91.126 E.01683
G1 X171.528 Y95.867 E.21092
G1 X171.528 Y96.402 E.01683
G1 X166.252 Y91.126 E.23472
G1 X165.717 Y91.126 E.01683
G1 X171.528 Y96.937 E.25852
G1 X171.528 Y97.472 E.01683
G1 X165.182 Y91.126 E.28232
G1 X164.647 Y91.126 E.01683
G1 X171.528 Y98.007 E.30613
G1 X171.528 Y98.542 E.01683
G1 X164.112 Y91.126 E.32993
G1 X163.577 Y91.126 E.01683
G1 X171.528 Y99.077 E.35373
G1 X171.528 Y99.612 E.01683
G1 X163.042 Y91.126 E.37753
G1 X162.507 Y91.126 E.01683
G1 X171.528 Y100.147 E.40133
G1 X171.528 Y100.682 E.01683
G1 X161.972 Y91.126 E.42513
G1 X161.437 Y91.126 E.01683
G1 X171.528 Y101.217 E.44893
G1 X171.528 Y101.753 E.01686
G1 X160.902 Y91.126 E.47276
G1 X160.367 Y91.126 E.01683
G1 X171.528 Y102.288 E.49656
G1 X171.528 Y102.823 E.01683
G1 X159.832 Y91.126 E.52036
G1 X159.296 Y91.126 E.01686
M73 P1 R74
M73 Q1 S74
G1 X171.528 Y103.358 E.54418
G1 X171.528 Y103.893 E.01683
G1 X158.761 Y91.126 E.56798
G1 X158.226 Y91.126 E.01683
G1 X171.528 Y104.428 E.59179
G1 X171.528 Y104.963 E.01683
G1 X157.691 Y91.126 E.61559
G1 X157.156 Y91.126 E.01683
G1 X171.528 Y105.498 E.63939
G1 X171.528 Y106.033 E.01683
G1 X156.621 Y91.126 E.66319
G1 X156.086 Y91.126 E.01683
G1 X171.528 Y106.568 E.68699
G1 X171.528 Y107.103 E.01683
G1 X155.551 Y91.126 E.71079
G1 X155.016 Y91.126 E.01683
M73 P1 R73
G1 X171.528 Y107.638 E.73459
G1 X171.528 Y108.173 E.01683
G1 X154.481 Y91.126 E.7584
G1 X153.946 Y91.126 E.01683
G1 X171.528 Y108.708 E.7822
G1 X171.528 Y109.243 E.01683
G1 X153.411 Y91.126 E.806
G1 X152.876 Y91.126 E.01683
G1 X171.528 Y109.778 E.8298
G1 X171.528 Y110.313 E.01683
G1 X152.341 Y91.126 E.8536
G1 X151.806 Y91.126 E.01683
G1 X160.051 Y99.372 E.36683
G1 X159.771 Y99.251 E.0096
G1 X159.228 Y99.084 E.01787
G1 X151.271 Y91.126 E.35402
G1 X150.736 Y91.126 E.01683
G1 X158.552 Y98.942 E.34772
G1 X157.968 Y98.893 E.01844
G1 X150.201 Y91.126 E.34554
G1 X149.666 Y91.126 E.01683
G1 X157.426 Y98.887 E.34525
G1 X156.928 Y98.923 E.01571
G1 X149.131 Y91.126 E.34688
G1 X148.596 Y91.126 E.01683
G1 X156.463 Y98.994 E.35001
G1 X156.034 Y99.1 E.0139
G1 X148.061 Y91.126 E.35473
G1 X147.526 Y91.126 E.01683
G1 X155.627 Y99.228 E.36042
G1 X155.236 Y99.372 E.01311
G1 X146.991 Y91.126 E.36683
G1 X146.456 Y91.126 E.01683
G1 X154.876 Y99.547 E.37462
G1 X154.532 Y99.738 E.01238
G1 X145.921 Y91.126 E.38311
G1 X145.386 Y91.126 E.01683
G1 X154.201 Y99.942 E.39219
G1 X153.897 Y100.173 E.01201
G1 X144.85 Y91.126 E.40249
G1 X144.315 Y91.126 E.01683
G1 X153.6 Y100.411 E.41308
G1 X153.328 Y100.674 E.0119
G1 X143.781 Y91.127 E.42473
G1 X143.781 Y91.662 E.01683
G1 X153.068 Y100.949 E.41316
G1 X152.824 Y101.24 E.01195
G1 X143.781 Y92.197 E.40231
G1 X143.781 Y92.732 E.01683
G1 X152.601 Y101.552 E.39239
G1 X152.387 Y101.874 E.01216
G1 X143.781 Y93.267 E.38289
G1 X143.781 Y93.802 E.01683
G1 X152.206 Y102.227 E.37482
G1 X152.028 Y102.585 E.01258
G1 X143.781 Y94.337 E.36692
G1 X143.781 Y94.872 E.01683
G1 X151.88 Y102.972 E.36033
G1 X151.755 Y103.381 E.01345
G1 X143.781 Y95.407 E.35475
G1 X143.781 Y95.942 E.01683
G1 X151.648 Y103.809 E.34999
G1 X151.577 Y104.273 E.01477
G1 X143.781 Y96.477 E.34683
G1 X143.781 Y97.012 E.01683
G1 X151.539 Y104.77 E.34514
G1 X151.527 Y105 E.00725
M73 Q1 S73
G1 X151.543 Y105.31 E.00976
G1 X143.781 Y97.547 E.34534
G1 X143.781 Y98.082 E.01683
G1 X151.604 Y105.906 E.34806
G1 X151.66 Y106.265 E.01143
G1 X151.744 Y106.58 E.01026
G1 X143.781 Y98.617 E.35426
G1 X143.781 Y99.152 E.01683
G1 X152.382 Y107.754 E.38267
M204 S1000
;WIPE_START
G1 F8640
G1 X149.932 Y105.304 E-.8
;WIPE_END
G1 Z.6 F720
G1 X162.94 Y102.261 F10800
G1 Z.2 F720
G1 E.8 F2100
M204 S800
G1 F1200
G1 X171.528 Y110.848 E.38204
G1 X171.528 Y111.383 E.01683
G1 X163.571 Y103.426 E.35399
G1 X163.708 Y104.098 E.02157
G1 X171.528 Y111.918 E.3479
G1 X171.528 Y112.453 E.01683
G1 X163.772 Y104.697 E.34505
G1 X163.77 Y105.231 E.0168
G1 X171.528 Y112.988 E.34512
G1 X171.528 Y113.523 E.01683
G1 X163.73 Y105.725 E.34692
G1 X163.658 Y106.188 E.01474
G1 X171.528 Y114.058 E.35012
G1 X171.528 Y114.593 E.01683
G1 X163.558 Y106.624 E.35455
G1 X163.427 Y107.028 E.01336
G1 X171.528 Y115.128 E.36038
G1 X171.528 Y115.663 E.01683
G1 X163.276 Y107.412 E.3671
G1 X163.111 Y107.782 E.01274
G1 X171.528 Y116.199 E.37446
G1 X171.528 Y116.734 E.01683
G1 X162.916 Y108.121 E.38316
G1 X162.71 Y108.451 E.01224
G1 X171.528 Y117.269 E.3923
G1 X171.528 Y117.804 E.01683
G1 X162.483 Y108.759 E.4024
G1 X162.239 Y109.05 E.01195
G1 X171.528 Y118.339 E.41325
G1 X171.528 Y118.874 E.01683
M73 P2 R73
M73 Q2 S73
G1 X161.984 Y109.33 E.4246
G1 X161.704 Y109.585 E.01191
G1 X170.992 Y118.874 E.41323
G1 X170.457 Y118.874 E.01683
G1 X161.415 Y109.831 E.40229
G1 X161.103 Y110.054 E.01206
G1 X169.922 Y118.874 E.39237
G1 X169.387 Y118.874 E.01683
G1 X160.775 Y110.262 E.38313
G1 X160.431 Y110.452 E.01236
G1 X168.852 Y118.874 E.37466
G1 X168.317 Y118.874 E.01683
G1 X160.066 Y110.622 E.3671
G1 X159.687 Y110.778 E.01289
G1 X167.782 Y118.874 E.36016
G1 X167.247 Y118.874 E.01683
G1 X159.274 Y110.9 E.35473
G1 X158.842 Y111.003 E.01397
G1 X166.712 Y118.874 E.35015
G1 X166.177 Y118.874 E.01683
G1 X158.381 Y111.078 E.34683
G1 X157.886 Y111.118 E.01562
G1 X165.642 Y118.874 E.34505
G1 X165.107 Y118.874 E.01683
G1 X157.347 Y111.113 E.34525
G1 X156.75 Y111.052 E.01888
G1 X164.572 Y118.874 E.34799
G1 X164.037 Y118.874 E.01683
G1 X156.076 Y110.913 E.35417
G1 X155.925 Y110.877 E.00488
G1 X155.268 Y110.64 E.02197
G1 X163.502 Y118.874 E.36632
G1 X162.967 Y118.874 E.01683
G1 X143.781 Y99.687 E.85358
G1 X143.781 Y100.222 E.01683
G1 X162.432 Y118.874 E.82978
G1 X161.897 Y118.874 E.01683
G1 X143.781 Y100.757 E.80598
G1 X143.781 Y101.292 E.01683
G1 X161.362 Y118.874 E.78217
G1 X160.827 Y118.874 E.01683
G1 X143.781 Y101.827 E.75837
G1 X143.781 Y102.362 E.01683
G1 X160.292 Y118.874 E.73457
G1 X159.757 Y118.874 E.01683
G1 X143.781 Y102.897 E.71077
G1 X143.781 Y103.432 E.01683
G1 X159.222 Y118.874 E.68697
G1 X158.687 Y118.874 E.01683
G1 X143.781 Y103.967 E.66317
G1 X143.781 Y104.503 E.01686
G1 X158.152 Y118.874 E.63934
G1 X157.617 Y118.874 E.01683
G1 X143.781 Y105.038 E.61554
G1 X143.781 Y105.573 E.01683
M73 P2 R72
G1 X157.082 Y118.874 E.59174
G1 X156.546 Y118.874 E.01686
G1 X143.781 Y106.108 E.56792
G1 X143.781 Y106.643 E.01683
G1 X156.011 Y118.874 E.54412
G1 X155.476 Y118.874 E.01683
G1 X143.781 Y107.178 E.52031
G1 X143.781 Y107.713 E.01683
G1 X154.941 Y118.874 E.49651
G1 X154.406 Y118.874 E.01683
G1 X143.781 Y108.248 E.47271
G1 X143.781 Y108.783 E.01683
G1 X153.871 Y118.874 E.44891
G1 X153.336 Y118.874 E.01683
G1 X143.781 Y109.318 E.42511
G1 X143.781 Y109.853 E.01683
G1 X152.801 Y118.874 E.40131
G1 X152.266 Y118.874 E.01683
G1 X143.781 Y110.388 E.37751
G1 X143.781 Y110.923 E.01683
G1 X151.731 Y118.874 E.35371
G1 X151.196 Y118.874 E.01683
G1 X143.781 Y111.458 E.3299
G1 X143.781 Y111.993 E.01683
G1 X150.661 Y118.874 E.3061
G1 X150.126 Y118.874 E.01683
G1 X143.781 Y112.528 E.2823
G1 X143.781 Y113.063 E.01683
G1 X149.591 Y118.874 E.2585
G1 X149.056 Y118.874 E.01683
G1 X143.781 Y113.598 E.2347
G1 X143.781 Y114.133 E.01683
G1 X148.521 Y118.874 E.2109
G1 X147.986 Y118.874 E.01683
G1 X143.781 Y114.668 E.1871
G1 X143.781 Y115.203 E.01683
G1 X147.451 Y118.874 E.16329
G1 X146.916 Y118.874 E.01683
