; generated by PrusaSlicer 2.7.1+MacOS-x64 on 2024-02-24 at 16:29:43 UTC


;
;
; 

; external perimeters extrusion width = 0.45mm
; perimeters extrusion width = 0.45mm
; infill extrusion width = 0.45mm
; solid infill extrusion width = 0.45mm
; top infill extrusion width = 0.40mm
; first layer extrusion width = 0.42mm

; external perimeters extrusion width = 0.45mm
; perimeters extrusion width = 0.45mm
; infill extrusion width = 0.45mm
; solid infill extrusion width = 0.45mm
; top infill extrusion width = 0.40mm
; first layer extrusion width = 0.42mm

M73 P0 R39
M73 Q0 S39
M201 X1000 Y1000 Z200 E5000 ; sets maximum accelerations, mm/sec^2
M203 X200 Y200 Z12 E120 ; sets maximum feedrates, mm / sec
M204 S1250 T1250 ; sets acceleration (S) and retract acceleration (R), mm/sec^2
M205 X8.00 Y8.00 Z0.40 E4.50 ; sets the jerk limits, mm/sec
M205 S0 T0 ; sets the minimum extruding and travel feed rate, mm/sec

; printing object num1boxSlide.stl id:1 copy 0
; stop printing object num1boxSlide.stl id:1 copy 0
; printing object num1lidSlide.stl id:0 copy 0
; stop printing object num1lidSlide.stl id:0 copy 0

;TYPE:Custom
M862.3 P "MK3S" ; printer model check
M862.1 P0.4 ; nozzle diameter check
M115 U3.13.2 ; tell printer latest fw version
G90 ; use absolute coordinates
M83 ; extruder relative mode
M104 S215 ; set extruder temp
M140 S60 ; set bed temp
M190 S60 ; wait for bed temp
M109 S215 ; wait for extruder temp
G28 W ; home all without mesh bed level
G80 X108.741 Y87.4344 W65.1608 H35.1312 ; mesh bed levelling

G1 Z0.2 F720
G1 Y-3 F1000 ; go outside print area
G92 E0
G1 X60 E9 F1000 ; intro line
G1 X100 E12.5 F1000 ; intro line

G92 E0
M221 S95

; Don't change E values below. Excessive value can damage the printer.
M907 E430 ; set extruder motor current
G21 ; set units to millimeters
G90 ; use absolute coordinates
M83 ; use relative distances for extrusion
M900 K0.05 ; Filament gcode LA 1.5
M900 K30 ; Filament gcode LA 1.0

M107
;LAYER_CHANGE
;Z:0.2
;HEIGHT:0.2
;BEFORE_LAYER_CHANGE
G92 E0.0
;0.2


G1 E-.8 F2100
G1 Z.2 F720
;AFTER_LAYER_CHANGE
;0.2
G1 X109.322 Y89.793 F10800
G1 Z.2 F720
G1 E.8 F2100
M204 S800
;TYPE:Skirt/Brim
;WIDTH:0.42
G1 F1200
G1 X110.367 Y88.917 E.04275
G1 X111.22 Y88.725 E.02741
G1 X141.337 Y87.623 E.94493
G1 X171.337 Y87.623 E.94063
G1 X172.644 Y88.015 E.04278
G1 X173.52 Y89.06 E.04275
G1 X173.714 Y90 E.03009
G1 X173.714 Y120 E.94063
G1 X173.322 Y121.307 E.04278
G1 X172.276 Y122.183 E.04278
G1 X171.337 Y122.377 E.03006
G1 X141.337 Y122.377 E.94063
G1 X111.22 Y121.275 E.94493
G1 X109.928 Y120.836 E.04278
G1 X109.091 Y119.759 E.04277
G1 X108.93 Y118.9 E.0274
G1 X108.93 Y91.1 E.87165
G1 X109.304 Y89.85 E.04091
M204 S1000
; printing object num1boxSlide.stl id:1 copy 0
;WIPE_START
G1 F8640
G1 X109.322 Y89.793 E-.0138
G1 X110.367 Y88.917 E-.31486
G1 X111.22 Y88.725 E-.20189
G1 X112.386 Y88.682 E-.26945
;WIPE_END
G1 Z.6 F720
G1 X142.124 Y119.213 F10800
G1 Z.2 F720
G1 E.8 F2100
M204 S800
;TYPE:Perimeter
;WIDTH:0.419999
G1 F1200
G1 X142.124 Y90.787 E.89128
G1 X170.55 Y90.787 E.89128
G1 X170.55 Y105 E.44564
G1 X170.55 Y119.213 E.44564
G1 X142.184 Y119.213 E.88939
M204 S1000
G1 X141.747 Y119.59 F10800
M73 P0 R38
M204 S800
;TYPE:External perimeter
G1 F1200
G1 X141.747 Y90.41 E.91492
G1 X170.927 Y90.41 E.91492
M73 P1 R38
M73 Q1 S39
G1 X170.927 Y105 E.45746
G1 X170.927 Y119.59 E.45746
G1 X141.807 Y119.59 E.91304
M204 S1000
;WIPE_START
G1 F8640
G1 X141.747 Y119.59 E-.01385
G1 X141.747 Y116.185 E-.78615
;WIPE_END
G1 Z.6 F720
G1 X169.614 Y90.957 F10800
G1 Z.2 F720
G1 E.8 F2100
M204 S800
;TYPE:Solid infill
;WIDTH:0.421716
G1 F1200
G1 X170.21 Y91.553 E.02655
G1 X170.21 Y92.089 E.01688
G1 X169.248 Y91.126 E.04287
G1 X168.712 Y91.126 E.01688
G1 X170.21 Y92.624 E.06673
G1 X170.21 Y93.16 E.01688
G1 X168.177 Y91.126 E.09058
G1 X167.641 Y91.126 E.01688
M73 Q1 S38
G1 X170.21 Y93.696 E.11445
G1 X170.21 Y94.231 E.01685
G1 X167.105 Y91.126 E.13831
G1 X166.569 Y91.126 E.01688
G1 X170.21 Y94.767 E.16218
G1 X170.21 Y95.303 E.01688
G1 X166.034 Y91.126 E.18604
G1 X165.498 Y91.126 E.01688
G1 X170.21 Y95.839 E.20991
G1 X170.21 Y96.374 E.01685
G1 X164.962 Y91.126 E.23376
G1 X164.427 Y91.126 E.01685
G1 X170.21 Y96.91 E.25762
G1 X170.21 Y97.446 E.01688
G1 X163.891 Y91.126 E.28149
G1 X163.355 Y91.126 E.01688
G1 X170.21 Y97.981 E.30535
G1 X170.21 Y98.517 E.01688
G1 X162.82 Y91.126 E.3292
G1 X162.284 Y91.126 E.01688
G1 X170.21 Y99.053 E.35307
G1 X170.21 Y99.588 E.01685
G1 X161.748 Y91.126 E.37693
G1 X161.213 Y91.126 E.01685
G1 X170.21 Y100.124 E.40078
G1 X170.21 Y100.66 E.01688
G1 X160.677 Y91.126 E.42466
G1 X160.141 Y91.126 E.01688
G1 X170.21 Y101.196 E.44853
G1 X170.21 Y101.731 E.01685
G1 X159.605 Y91.126 E.47238
G1 X159.07 Y91.126 E.01685
G1 X170.21 Y102.267 E.49624
G1 X170.21 Y102.803 E.01688
G1 X158.534 Y91.126 E.52011
G1 X157.998 Y91.126 E.01688
G1 X170.21 Y103.338 E.54397
G1 X170.21 Y103.874 E.01688
G1 X157.463 Y91.126 E.56782
G1 X156.927 Y91.126 E.01688
G1 X170.21 Y104.41 E.59169
G1 X170.21 Y104.945 E.01685
G1 X156.391 Y91.126 E.61555
G1 X155.856 Y91.126 E.01685
G1 X170.21 Y105.481 E.6394
G1 X170.21 Y106.017 E.01688
G1 X155.32 Y91.126 E.66328
G1 X154.784 Y91.126 E.01688
G1 X170.21 Y106.553 E.68715
G1 X170.21 Y107.088 E.01685
M73 Q2 S38
G1 X154.248 Y91.126 E.711
G1 X153.713 Y91.126 E.01685
M73 P2 R38
G1 X170.21 Y107.624 E.73486
G1 X170.21 Y108.16 E.01688
G1 X153.177 Y91.126 E.75873
G1 X152.641 Y91.126 E.01688
G1 X170.21 Y108.695 E.78258
G1 X170.21 Y109.231 E.01688
G1 X152.106 Y91.126 E.80644
G1 X151.57 Y91.126 E.01688
G1 X170.21 Y109.767 E.83031
G1 X170.21 Y110.302 E.01685
G1 X151.034 Y91.126 E.85417
G1 X150.499 Y91.126 E.01685
G1 X170.21 Y110.838 E.87802
G1 X170.21 Y111.374 E.01688
G1 X149.963 Y91.126 E.90189
G1 X149.427 Y91.126 E.01688
G1 X170.21 Y111.91 E.92577
G1 X170.21 Y112.445 E.01685
G1 X148.891 Y91.126 E.94962
G1 X148.356 Y91.126 E.01685
G1 X170.21 Y112.981 E.97348
G1 X170.21 Y113.517 E.01688
G1 X147.82 Y91.126 E.99735
G1 X147.284 Y91.126 E.01688
G1 X170.21 Y114.052 E1.0212
G1 X170.21 Y114.588 E.01688
G1 X146.749 Y91.126 E1.04506
G1 X146.213 Y91.126 E.01688
G1 X170.21 Y115.124 E1.06893
G1 X170.21 Y115.659 E.01685
G1 X145.677 Y91.126 E1.09279
G1 X145.142 Y91.126 E.01685
M73 P3 R38
M73 Q3 S38
G1 X170.21 Y116.195 E1.11664
G1 X170.21 Y116.731 E.01688
G1 X144.606 Y91.126 E1.14051
G1 X144.07 Y91.126 E.01688
G1 X170.21 Y117.267 E1.16439
G1 X170.21 Y117.802 E.01685
G1 X143.534 Y91.126 E1.18824
G1 X142.999 Y91.126 E.01685
G1 X170.21 Y118.338 E1.2121
G1 X170.21 Y118.874 E.01688
G1 X142.463 Y91.127 E1.23595
G1 X142.463 Y91.662 E.01685
M73 P3 R37
G1 X169.674 Y118.874 E1.2121
G1 X169.139 Y118.874 E.01685
G1 X142.463 Y92.198 E1.18824
G1 X142.463 Y92.734 E.01688
G1 X168.603 Y118.874 E1.16437
G1 X168.067 Y118.874 E.01688
G1 X142.463 Y93.269 E1.14051
G1 X142.463 Y93.805 E.01688
M73 Q3 S37
G1 X167.532 Y118.874 E1.11666
G1 X166.996 Y118.874 E.01688
G1 X142.463 Y94.341 E1.09279
G1 X142.463 Y94.876 E.01685
M73 P4 R37
M73 Q4 S37
G1 X166.46 Y118.874 E1.06893
G1 X165.925 Y118.874 E.01685
G1 X142.463 Y95.412 E1.04508
G1 X142.463 Y95.948 E.01688
G1 X165.389 Y118.874 E1.0212
G1 X164.853 Y118.874 E.01688
G1 X142.463 Y96.483 E.99735
G1 X142.463 Y97.019 E.01688
G1 X164.317 Y118.874 E.97348
G1 X163.782 Y118.874 E.01685
G1 X142.463 Y97.555 E.94962
G1 X142.463 Y98.091 E.01688
G1 X163.246 Y118.874 E.92575
G1 X162.71 Y118.874 E.01688
G1 X142.463 Y98.626 E.90189
G1 X142.463 Y99.162 E.01688
G1 X162.175 Y118.874 E.87804
G1 X161.639 Y118.874 E.01688
G1 X142.463 Y99.698 E.85417
G1 X142.463 Y100.233 E.01685
G1 X161.103 Y118.874 E.83031
G1 X160.568 Y118.874 E.01685
G1 X142.463 Y100.769 E.80646
G1 X142.463 Y101.305 E.01688
G1 X160.032 Y118.874 E.78258
G1 X159.496 Y118.874 E.01688
G1 X142.463 Y101.84 E.75873
G1 X142.463 Y102.376 E.01688
G1 X158.96 Y118.874 E.73486
G1 X158.425 Y118.874 E.01685
G1 X142.463 Y102.912 E.711
G1 X142.463 Y103.448 E.01688
G1 X157.889 Y118.874 E.68713
G1 X157.353 Y118.874 E.01688
M73 P5 R37
M73 Q5 S37
G1 X142.463 Y103.983 E.66328
G1 X142.463 Y104.519 E.01688
G1 X156.818 Y118.874 E.63942
G1 X156.282 Y118.874 E.01688
G1 X142.463 Y105.055 E.61555
G1 X142.463 Y105.59 E.01685
G1 X155.746 Y118.874 E.59169
G1 X155.211 Y118.874 E.01685
G1 X142.463 Y106.126 E.56784
G1 X142.463 Y106.662 E.01688
G1 X154.675 Y118.874 E.54397
G1 X154.139 Y118.874 E.01688
G1 X142.463 Y107.197 E.52011
G1 X142.463 Y107.733 E.01688
G1 X153.604 Y118.874 E.49626
G1 X153.068 Y118.874 E.01688
G1 X142.463 Y108.269 E.47238
G1 X142.463 Y108.805 E.01688
G1 X152.532 Y118.874 E.44851
G1 X151.996 Y118.874 E.01688
G1 X142.463 Y109.34 E.42466
G1 X142.463 Y109.876 E.01688
G1 X151.461 Y118.874 E.4008
G1 X150.925 Y118.874 E.01688
G1 X142.463 Y110.412 E.37693
G1 X142.463 Y110.947 E.01685
G1 X150.389 Y118.874 E.35307
G1 X149.854 Y118.874 E.01685
G1 X142.463 Y111.483 E.32922
G1 X142.463 Y112.019 E.01688
G1 X149.318 Y118.874 E.30535
G1 X148.782 Y118.874 E.01688
G1 X142.463 Y112.554 E.28149
G1 X142.463 Y113.09 E.01688
G1 X148.247 Y118.874 E.25764
G1 X147.711 Y118.874 E.01688
G1 X142.463 Y113.626 E.23376
G1 X142.463 Y114.162 E.01688
G1 X147.175 Y118.874 E.20989
G1 X146.639 Y118.874 E.01688
G1 X142.463 Y114.697 E.18604
G1 X142.463 Y115.233 E.01688
G1 X146.104 Y118.874 E.16218
G1 X145.568 Y118.874 E.01688
G1 X142.463 Y115.769 E.13831
G1 X142.463 Y116.304 E.01685
G1 X145.032 Y118.874 E.11445
G1 X144.497 Y118.874 E.01685
G1 X142.463 Y116.84 E.0906
G1 X142.463 Y117.376 E.01688
G1 X143.961 Y118.874 E.06673
G1 X143.425 Y118.874 E.01688
G1 X142.463 Y117.911 E.04287
G1 X142.463 Y118.447 E.01688
G1 X143.059 Y119.043 E.02655
M204 S1000
; stop printing object num1boxSlide.stl id:1 copy 0
; printing object num1lidSlide.stl id:0 copy 0
;WIPE_START
G1 F8640
G1 X142.463 Y118.447 E-.19462
G1 X142.463 Y117.911 E-.12376
G1 X143.425 Y118.874 E-.3143
G1 X143.961 Y118.874 E-.12376
G1 X143.828 Y118.741 E-.04356
;WIPE_END
G1 Z.6 F720
G1 X137.906 Y118.113 F10800
G1 Z.2 F720
G1 E.8 F2100
M204 S800
;TYPE:Perimeter
;WIDTH:0.419999
G1 F1200
G1 X112.094 Y118.113 E.80932
G1 X112.094 Y94.736 E.73297
;WIDTH:0.464219
G1 X112.116 Y94.413 E.01134
;WIDTH:0.508439
G1 X112.138 Y94.09 E.01253
G1 X112.129 Y93.589 E.0194
;WIDTH:0.489515
G1 X112.112 Y93.227 E.01346
;WIDTH:0.454757
G1 X112.094 Y92.866 E.01238
;WIDTH:0.419999
G1 X112.094 Y91.887 E.0307
G1 X113.526 Y91.887 E.0449
;WIDTH:0.46498
G1 X113.645 Y91.91 E.00425
;WIDTH:0.509961
G1 X113.763 Y91.932 E.00466
;WIDTH:0.554942
G1 X113.882 Y91.955 E.00516
;WIDTH:0.599922
G1 X114 Y91.977 E.00556
G1 X113.959 Y91.996 E.00209
;WIDTH:0.579691
G1 X113.812 Y92.073 E.00741
;WIDTH:0.539768
G1 X113.665 Y92.15 E.00686
;WIDTH:0.499845
G1 X113.518 Y92.227 E.0063
;WIDTH:0.459922
G1 X113.371 Y92.304 E.00575
;WIDTH:0.419999
G1 X113.065 Y92.553 E.01237
G1 X112.827 Y92.868 E.01238
;WIDTH:0.462581
G1 X112.712 Y93.113 E.00944
;WIDTH:0.505162
G1 X112.597 Y93.358 E.0104
G1 X112.574 Y93.616 E.00996
G1 X112.597 Y94.018 E.01548
G1 X112.648 Y94.155 E.00562
;WIDTH:0.472537
G1 X112.811 Y94.438 E.01167
;WIDTH:0.446268
G1 X112.974 Y94.721 E.01095
;WIDTH:0.419999
G1 X113.258 Y94.995 E.01237
G1 X113.6 Y95.192 E.01237
G1 X113.978 Y95.302 E.01234
G1 X114.372 Y95.319 E.01237
G1 X114.759 Y95.241 E.01238
G1 X115.115 Y95.072 E.01236
G1 X115.421 Y94.823 E.01237
G1 X115.659 Y94.508 E.01238
G1 X115.814 Y94.145 E.01238
G1 X115.878 Y93.756 E.01236
G1 X115.846 Y93.363 E.01236
G1 X115.722 Y92.989 E.01235
G1 X115.512 Y92.655 E.01237
G1 X115.115 Y92.304 E.01662
;WIDTH:0.467311
G1 X114.969 Y92.223 E.00589
;WIDTH:0.514623
G1 X114.823 Y92.143 E.00653
;WIDTH:0.561935
G1 X114.677 Y92.062 E.00721
;WIDTH:0.609246
G1 X114.53 Y91.982 E.00788
G1 X114.638 Y91.958 E.00521
;WIDTH:0.561935
G1 X114.745 Y91.934 E.00473
;WIDTH:0.514623
G1 X114.852 Y91.911 E.00429
;WIDTH:0.467311
G1 X114.959 Y91.887 E.00387
;WIDTH:0.419999
G1 X135.041 Y91.887 E.62966
;WIDTH:0.46498
G1 X135.159 Y91.91 E.00422
;WIDTH:0.509961
G1 X135.277 Y91.932 E.00466
;WIDTH:0.554942
G1 X135.396 Y91.955 E.00516
;WIDTH:0.599922
G1 X135.514 Y91.977 E.00556
G1 X135.422 Y92.023 E.00476
;WIDTH:0.554107
G1 X135.329 Y92.069 E.00441
;WIDTH:0.508292
G1 X135.236 Y92.115 E.00401
;WIDTH:0.462477
G1 X134.772 Y92.382 E.01868
;WIDTH:0.419999
G1 X134.453 Y92.714 E.01444
G1 X134.214 Y93.169 E.01611
G1 X134.122 Y93.62 E.01443
G1 X134.154 Y94.013 E.01236
G1 X134.278 Y94.387 E.01235
G1 X134.488 Y94.721 E.01237
G1 X134.772 Y94.995 E.01237
G1 X135.114 Y95.192 E.01237
G1 X135.492 Y95.302 E.01234
G1 X135.886 Y95.319 E.01237
G1 X136.273 Y95.241 E.01238
G1 X136.629 Y95.072 E.01236
G1 X136.935 Y94.823 E.01237
G1 X137.173 Y94.508 E.01238
;WIDTH:0.464219
G1 X137.286 Y94.279 E.00895
;WIDTH:0.508438
G1 X137.4 Y94.05 E.0099
G1 X137.426 Y93.76 E.01127
;WIDTH:0.505162
G1 X137.403 Y93.358 E.01548
G1 X137.319 Y93.173 E.00781
;WIDTH:0.462581
G1 X137.236 Y92.989 E.00704
;WIDTH:0.419999
G1 X137.023 Y92.651 E.01253
G1 X136.629 Y92.304 E.01646
;WIDTH:0.467311
G1 X136.483 Y92.223 E.00589
;WIDTH:0.514623
G1 X136.337 Y92.143 E.00653
;WIDTH:0.561935
G1 X136.191 Y92.062 E.00721
;WIDTH:0.609246
G1 X136.044 Y91.982 E.00788
G1 X136.152 Y91.958 E.00521
;WIDTH:0.561935
G1 X136.259 Y91.934 E.00473
;WIDTH:0.514623
G1 X136.366 Y91.911 E.00429
;WIDTH:0.467311
G1 X136.474 Y91.887 E.0039
;WIDTH:0.419999
G1 X137.906 Y91.887 E.0449
G1 X137.906 Y92.372 E.01521
G1 X137.906 Y92.381 E.00028
;WIDTH:0.461121
G1 X137.885 Y93.125 E.02588
;WIDTH:0.489514
G1 X137.871 Y93.787 E.02459
G1 X137.888 Y94.149 E.01346
;WIDTH:0.454757
G1 X137.906 Y94.51 E.01238
;WIDTH:0.419999
G1 X137.906 Y118.053 E.73817
M204 S1000
G1 X138.283 Y118.49 F10800
M73 P6 R37
M73 Q6 S37
M204 S800
;TYPE:External perimeter
G1 F1200
G1 X111.717 Y118.49 E.83296
G1 X111.717 Y91.51 E.84594
M73 P6 R36
G1 X138.283 Y91.51 E.83296
G1 X138.283 Y92.372 E.02703
G1 X138.283 Y118.43 E.81703
M204 S1000
;WIPE_START
G1 F8640
G1 X138.283 Y118.49 E-.01385
G1 X134.878 Y118.49 E-.78615
;WIPE_END
G1 Z.6 F720
G1 X134.5 Y93.647 F10800
G1 Z.2 F720
G1 E.8 F2100
M204 S800
G1 F1200
G1 X134.548 Y93.344 E.00962
G1 X134.786 Y92.889 E.0161
G1 X135.06 Y92.638 E.01165
G1 X135.331 Y92.502 E.00951
G1 X135.628 Y92.434 E.00955
G1 X135.932 Y92.44 E.00953
G1 X136.225 Y92.518 E.00951
G1 X136.492 Y92.664 E.00954
G1 X136.715 Y92.869 E.0095
G1 X136.884 Y93.122 E.00954
G1 X136.986 Y93.408 E.00952
G1 X137.017 Y93.711 E.00955
G1 X136.975 Y94.012 E.00953
G1 X136.862 Y94.294 E.00953
G1 X136.685 Y94.541 E.00953
G1 X136.454 Y94.738 E.00952
G1 X136.183 Y94.874 E.00951
G1 X135.886 Y94.942 E.00955
G1 X135.583 Y94.936 E.0095
G1 X135.289 Y94.858 E.00954
G1 X135.022 Y94.712 E.00954
G1 X134.799 Y94.507 E.0095
G1 X134.652 Y94.294 E.00811
G1 X134.528 Y93.968 E.01094
G1 X134.501 Y93.707 E.00823
M204 S1000
;WIPE_START
G1 F8640
G1 X134.5 Y93.647 E-.01386
G1 X134.548 Y93.344 E-.07084
G1 X134.786 Y92.889 E-.11857
G1 X135.06 Y92.638 E-.0858
G1 X135.331 Y92.502 E-.07001
G1 X135.628 Y92.434 E-.07035
G1 X135.932 Y92.44 E-.07021
G1 X136.225 Y92.518 E-.07001
G1 X136.492 Y92.664 E-.07027
G1 X136.715 Y92.869 E-.06994
G1 X136.884 Y93.122 E-.07025
G1 X136.913 Y93.203 E-.01989
;WIPE_END
G1 Z.6 F720
G1 X135.514 Y91.977 F10800
G1 Z.2 F720
G1 E.8 F2100
M204 S800
;TYPE:Perimeter
;WIDTH:0.609246
G1 F1200
G1 X136.044 Y91.982 E.02496
M204 S1000
;WIPE_START
G1 F8640
G1 X135.514 Y91.977 E-.12238
;WIPE_END
G1 E-.67762 F2100
G1 Z.6 F720
G1 X113.197 Y92.999 F10800
G1 Z.2 F720
G1 E.8 F2100
M204 S800
;TYPE:External perimeter
;WIDTH:0.419999
G1 F1200
G1 X113.315 Y92.835 E.00633
G1 X113.546 Y92.638 E.00952
G1 X113.817 Y92.502 E.00951
G1 X114.114 Y92.434 E.00955
G1 X114.417 Y92.44 E.0095
G1 X114.711 Y92.518 E.00954
G1 X114.978 Y92.664 E.00954
G1 X115.201 Y92.869 E.0095
G1 X115.369 Y93.122 E.00952
G1 X115.472 Y93.408 E.00953
G1 X115.503 Y93.711 E.00955
G1 X115.461 Y94.012 E.00953
G1 X115.348 Y94.294 E.00953
G1 X115.171 Y94.541 E.00953
G1 X114.94 Y94.738 E.00952
G1 X114.669 Y94.874 E.00951
G1 X114.372 Y94.942 E.00955
G1 X114.068 Y94.936 E.00953
G1 X113.775 Y94.858 E.00951
G1 X113.508 Y94.712 E.00954
G1 X113.285 Y94.507 E.0095
G1 X113.116 Y94.254 E.00954
G1 X113.014 Y93.968 E.00952
G1 X112.983 Y93.711 E.00812
G1 X113.025 Y93.364 E.01096
