; generated by PrusaSlicer 2.7.1+MacOS-x64 on 2024-02-28 at 16:09:14 UTC


;
;
; 

; external perimeters extrusion width = 0.45mm
; perimeters extrusion width = 0.45mm
; infill extrusion width = 0.45mm
; solid infill extrusion width = 0.45mm
; top infill extrusion width = 0.40mm
; first layer extrusion width = 0.42mm

; external perimeters extrusion width = 0.45mm
; perimeters extrusion width = 0.45mm
; infill extrusion width = 0.45mm
; solid infill extrusion width = 0.45mm
; top infill extrusion width = 0.40mm
; first layer extrusion width = 0.42mm

; external perimeters extrusion width = 0.45mm
; perimeters extrusion width = 0.45mm
; infill extrusion width = 0.45mm
; solid infill extrusion width = 0.45mm
; top infill extrusion width = 0.40mm
; first layer extrusion width = 0.42mm

M73 P0 R66
M73 Q0 S66
M201 X1000 Y1000 Z200 E5000 ; sets maximum accelerations, mm/sec^2
M203 X200 Y200 Z12 E120 ; sets maximum feedrates, mm / sec
M204 S1250 T1250 ; sets acceleration (S) and retract acceleration (R), mm/sec^2
M205 X8.00 Y8.00 Z0.40 E4.50 ; sets the jerk limits, mm/sec
M205 S0 T0 ; sets the minimum extruding and travel feed rate, mm/sec

; printing object NumTileBottom.stl id:0 copy 0
; stop printing object NumTileBottom.stl id:0 copy 0
; printing object NumTileTop1.stl id:1 copy 0
; stop printing object NumTileTop1.stl id:1 copy 0
; printing object oneNumTileSlotTest.stl id:2 copy 0
; stop printing object oneNumTileSlotTest.stl id:2 copy 0

;TYPE:Custom
M862.3 P "MK3S" ; printer model check
M862.1 P0.4 ; nozzle diameter check
M115 U3.13.2 ; tell printer latest fw version
G90 ; use absolute coordinates
M83 ; extruder relative mode
M104 S215 ; set extruder temp
M140 S60 ; set bed temp
M190 S60 ; wait for bed temp
M109 S215 ; wait for extruder temp
G28 W ; home all without mesh bed level
G80 X67.8998 Y84.9344 W111.06 H40.1312 ; mesh bed levelling

G1 Z0.2 F720
G1 Y-3 F1000 ; go outside print area
G92 E0
G1 X60 E9 F1000 ; intro line
G1 X100 E12.5 F1000 ; intro line

G92 E0
M221 S95

; Don't change E values below. Excessive value can damage the printer.
M907 E430 ; set extruder motor current
G21 ; set units to millimeters
G90 ; use absolute coordinates
M83 ; use relative distances for extrusion
M900 K0.05 ; Filament gcode LA 1.5
M900 K30 ; Filament gcode LA 1.0

M107
;LAYER_CHANGE
;Z:0.2
;HEIGHT:0.2
;BEFORE_LAYER_CHANGE
G92 E0.0
;0.2


G1 E-.8 F2100
G1 Z.2 F720
;AFTER_LAYER_CHANGE
;0.2
G1 X69.526 Y85.317 F10800
G1 Z.2 F720
G1 E.8 F2100
M204 S800
;TYPE:Skirt/Brim
;WIDTH:0.42
G1 F1200
G1 X70.465 Y85.123 E.03006
G1 X105.557 Y85.125 E1.10029
G1 X175.673 Y87.812 E2.20005
G1 X176.209 Y87.875 E.01692
G1 X176.988 Y88.145 E.02585
G1 X177.63 Y88.56 E.02397
G1 X178.249 Y89.261 E.02932
G1 X178.692 Y90.315 E.03585
G1 X178.772 Y91 E.02162
G1 X178.772 Y119 E.87792
G1 X178.707 Y119.627 E.01976
G1 X178.438 Y120.406 E.02584
M73 P0 R65
G1 X178.022 Y121.047 E.02396
G1 X177.321 Y121.666 E.02932
G1 X176.267 Y122.11 E.03586
G1 X175.673 Y122.188 E.01878
G1 X105.557 Y124.875 E2.20005
G1 X70.465 Y124.877 E1.10029
G1 X69.158 Y124.485 E.04278
G1 X68.282 Y123.44 E.04275
G1 X68.088 Y122.5 E.03009
G1 X68.088 Y87.5 E1.0974
G1 X68.48 Y86.193 E.04278
G1 X69.48 Y85.355 E.04091
M204 S1000
; printing object oneNumTileSlotTest.stl id:2 copy 0
;WIPE_START
G1 F8640
G1 X69.526 Y85.317 E-.01378
G1 X70.465 Y85.123 E-.2214
G1 X72.911 Y85.123 E-.56482
;WIPE_END
G1 Z.6 F720
G1 X104.678 Y121.713 F10800
G1 Z.2 F720
G1 E.8 F2100
M204 S800
;TYPE:Perimeter
;WIDTH:0.419999
G1 F1200
G1 X71.253 Y121.713 E1.04802
G1 X71.253 Y88.287 E1.04805
G1 X104.678 Y88.287 E1.04802
G1 X104.678 Y105 E.52402
G1 X104.678 Y121.653 E.52214
M204 S1000
G1 X105.055 Y122.09 F10800
M204 S800
;TYPE:External perimeter
G1 F1200
G1 X70.875 Y122.09 E1.07169
G1 X70.875 Y87.91 E1.07169
G1 X105.055 Y87.91 E1.07169
G1 X105.055 Y105 E.53584
G1 X105.055 Y122.03 E.53396
M204 S1000
;WIPE_START
G1 F8640
G1 X105.055 Y122.09 E-.01385
G1 X101.65 Y122.09 E-.78615
;WIPE_END
G1 Z.6 F720
G1 X103.745 Y88.457 F10800
G1 Z.2 F720
G1 E.8 F2100
M204 S800
;TYPE:Solid infill
;WIDTH:0.420699
G1 F1200
G1 X104.339 Y89.051 E.02639
G1 X104.339 Y89.585 E.01677
G1 X103.38 Y88.626 E.0426
G1 X102.846 Y88.626 E.01677
G1 X104.339 Y90.119 E.06632
G1 X104.339 Y90.654 E.01681
G1 X102.312 Y88.626 E.09007
G1 X101.778 Y88.626 E.01677
G1 X104.339 Y91.188 E.11379
G1 X104.339 Y91.722 E.01677
G1 X101.243 Y88.626 E.13754
G1 X100.709 Y88.626 E.01677
G1 X104.339 Y92.256 E.16126
G1 X104.339 Y92.791 E.01681
G1 X100.175 Y88.626 E.185
G1 X99.641 Y88.626 E.01677
G1 X104.339 Y93.325 E.20873
G1 X104.339 Y93.859 E.01677
G1 X99.106 Y88.626 E.23247
G1 X98.572 Y88.626 E.01677
G1 X104.339 Y94.393 E.25619
G1 X104.339 Y94.928 E.01681
G1 X98.038 Y88.626 E.27994
G1 X97.504 Y88.626 E.01677
M73 P1 R65
M73 Q1 S66
G1 X104.339 Y95.462 E.30366
G1 X104.339 Y95.996 E.01677
G1 X96.969 Y88.626 E.3274
G1 X96.435 Y88.626 E.01677
G1 X104.339 Y96.53 E.35113
G1 X104.339 Y97.065 E.01681
G1 X95.901 Y88.626 E.37487
G1 X95.366 Y88.626 E.01681
G1 X104.339 Y97.599 E.39862
G1 X104.339 Y98.133 E.01677
G1 X94.832 Y88.626 E.42234
G1 X94.298 Y88.626 E.01677
G1 X104.339 Y98.668 E.44608
G1 X104.339 Y99.202 E.01677
M73 Q1 S65
G1 X93.764 Y88.626 E.46981
G1 X93.229 Y88.626 E.01681
G1 X104.339 Y99.736 E.49355
G1 X104.339 Y100.27 E.01677
G1 X92.695 Y88.626 E.51727
G1 X92.161 Y88.626 E.01677
G1 X104.339 Y100.805 E.54102
G1 X104.339 Y101.339 E.01677
G1 X91.627 Y88.626 E.56474
G1 X91.092 Y88.626 E.01681
G1 X104.339 Y101.873 E.58848
G1 X104.339 Y102.407 E.01677
G1 X90.558 Y88.626 E.61221
G1 X90.024 Y88.626 E.01677
G1 X104.339 Y102.942 E.63595
G1 X104.339 Y103.476 E.01677
G1 X89.49 Y88.626 E.65967
G1 X88.955 Y88.626 E.01681
G1 X104.339 Y104.01 E.68342
G1 X104.339 Y104.544 E.01677
G1 X88.421 Y88.626 E.70714
G1 X87.887 Y88.626 E.01677
G1 X104.339 Y105.079 E.73088
G1 X104.339 Y105.613 E.01677
G1 X87.353 Y88.626 E.75461
G1 X86.818 Y88.626 E.01681
G1 X104.339 Y106.147 E.77835
G1 X104.339 Y106.681 E.01677
G1 X86.284 Y88.626 E.80207
G1 X85.75 Y88.626 E.01677
G1 X104.339 Y107.216 E.82582
G1 X104.339 Y107.75 E.01677
G1 X85.216 Y88.626 E.84954
G1 X84.681 Y88.626 E.01681
G1 X104.339 Y108.284 E.87329
G1 X104.339 Y108.818 E.01677
G1 X84.147 Y88.626 E.89701
G1 X83.613 Y88.626 E.01677
G1 X104.339 Y109.353 E.92075
G1 X104.339 Y109.887 E.01677
G1 X83.078 Y88.626 E.9445
G1 X82.544 Y88.626 E.01677
G1 X104.339 Y110.421 E.96822
G1 X104.339 Y110.956 E.01681
G1 X82.01 Y88.626 E.99196
G1 X81.476 Y88.626 E.01677
G1 X104.339 Y111.49 E1.01569
G1 X104.339 Y112.024 E.01677
G1 X80.941 Y88.626 E1.03943
G1 X80.407 Y88.626 E.01677
M73 P1 R64
G1 X104.339 Y112.558 E1.06315
G1 X104.339 Y113.093 E.01681
G1 X79.873 Y88.626 E1.0869
G1 X79.339 Y88.626 E.01677
G1 X104.339 Y113.627 E1.11062
G1 X104.339 Y114.161 E.01677
M73 P2 R64
M73 Q2 S65
G1 X78.804 Y88.626 E1.13436
G1 X78.27 Y88.626 E.01677
G1 X104.339 Y114.695 E1.15809
G1 X104.339 Y115.23 E.01681
G1 X77.736 Y88.626 E1.18183
G1 X77.202 Y88.626 E.01677
G1 X104.339 Y115.764 E1.20555
G1 X104.339 Y116.298 E.01677
G1 X76.667 Y88.626 E1.2293
G1 X76.133 Y88.626 E.01677
G1 X104.339 Y116.832 E1.25302
G1 X104.339 Y117.367 E.01681
G1 X75.599 Y88.626 E1.27677
G1 X75.065 Y88.626 E.01677
G1 X104.339 Y117.901 E1.30049
G1 X104.339 Y118.435 E.01677
G1 X74.53 Y88.626 E1.32423
G1 X73.996 Y88.626 E.01677
G1 X104.339 Y118.969 E1.34795
G1 X104.339 Y119.504 E.01681
G1 X73.462 Y88.626 E1.3717
G1 X72.928 Y88.626 E.01677
G1 X104.339 Y120.038 E1.39542
G1 X104.339 Y120.572 E.01677
M73 Q2 S64
G1 X72.393 Y88.626 E1.41917
G1 X71.859 Y88.626 E.01677
G1 X104.339 Y121.106 E1.44289
G1 X104.339 Y121.374 E.00842
G1 X104.072 Y121.374 E.00839
G1 X71.592 Y88.894 E1.44289
G1 X71.592 Y89.428 E.01677
G1 X103.538 Y121.374 E1.41917
G1 X103.003 Y121.374 E.01681
G1 X71.592 Y89.962 E1.39542
G1 X71.592 Y90.496 E.01677
G1 X102.469 Y121.374 E1.3717
G1 X101.935 Y121.374 E.01677
G1 X71.592 Y91.031 E1.34795
G1 X71.592 Y91.565 E.01677
M73 P3 R64
M73 Q3 S64
G1 X101.401 Y121.374 E1.32423
G1 X100.866 Y121.374 E.01681
G1 X71.592 Y92.099 E1.30049
G1 X71.592 Y92.633 E.01677
G1 X100.332 Y121.374 E1.27677
G1 X99.798 Y121.374 E.01677
G1 X71.592 Y93.168 E1.25302
G1 X71.592 Y93.702 E.01677
G1 X99.264 Y121.374 E1.2293
G1 X98.729 Y121.374 E.01681
G1 X71.592 Y94.236 E1.20555
G1 X71.592 Y94.77 E.01677
G1 X98.195 Y121.374 E1.18183
G1 X97.661 Y121.374 E.01677
M73 P3 R63
G1 X71.592 Y95.305 E1.15809
G1 X71.592 Y95.839 E.01677
G1 X97.126 Y121.374 E1.13434
G1 X96.592 Y121.374 E.01677
G1 X71.592 Y96.373 E1.11062
G1 X71.592 Y96.908 E.01681
G1 X96.058 Y121.374 E1.08688
G1 X95.524 Y121.374 E.01677
G1 X71.592 Y97.442 E1.06315
G1 X71.592 Y97.976 E.01677
G1 X94.989 Y121.374 E1.03941
G1 X94.455 Y121.374 E.01677
G1 X71.592 Y98.51 E1.01569
G1 X71.592 Y99.045 E.01681
G1 X93.921 Y121.374 E.99194
G1 X93.387 Y121.374 E.01677
G1 X71.592 Y99.579 E.96822
G1 X71.592 Y100.113 E.01677
G1 X92.852 Y121.374 E.94447
G1 X92.318 Y121.374 E.01677
G1 X71.592 Y100.647 E.92075
G1 X71.592 Y101.182 E.01681
G1 X91.784 Y121.374 E.89701
G1 X91.25 Y121.374 E.01677
G1 X71.592 Y101.716 E.87329
G1 X71.592 Y102.25 E.01677
G1 X90.715 Y121.374 E.84954
G1 X90.181 Y121.374 E.01677
G1 X71.592 Y102.784 E.82582
G1 X71.592 Y103.319 E.01681
M73 P4 R63
M73 Q4 S64
G1 X89.647 Y121.374 E.80207
G1 X89.113 Y121.374 E.01677
G1 X71.592 Y103.853 E.77835
G1 X71.592 Y104.387 E.01677
G1 X88.578 Y121.374 E.75461
G1 X88.044 Y121.374 E.01677
G1 X71.592 Y104.921 E.73088
G1 X71.592 Y105.456 E.01681
M73 Q4 S63
G1 X87.51 Y121.374 E.70714
G1 X86.976 Y121.374 E.01677
G1 X71.592 Y105.99 E.68342
G1 X71.592 Y106.524 E.01677
G1 X86.441 Y121.374 E.65967
G1 X85.907 Y121.374 E.01677
G1 X71.592 Y107.058 E.63595
G1 X71.592 Y107.593 E.01681
G1 X85.373 Y121.374 E.61221
G1 X84.838 Y121.374 E.01681
G1 X71.592 Y108.127 E.58846
G1 X71.592 Y108.661 E.01677
G1 X84.304 Y121.374 E.56474
G1 X83.77 Y121.374 E.01677
G1 X71.592 Y109.195 E.54102
G1 X71.592 Y109.73 E.01681
G1 X83.236 Y121.374 E.51727
G1 X82.701 Y121.374 E.01681
G1 X71.592 Y110.264 E.49353
G1 X71.592 Y110.798 E.01677
G1 X82.167 Y121.374 E.46981
G1 X81.633 Y121.374 E.01677
G1 X71.592 Y111.333 E.44606
G1 X71.592 Y111.867 E.01677
G1 X81.099 Y121.374 E.42234
G1 X80.564 Y121.374 E.01681
G1 X71.592 Y112.401 E.39859
G1 X71.592 Y112.935 E.01677
G1 X80.03 Y121.374 E.37487
G1 X79.496 Y121.374 E.01677
G1 X71.592 Y113.47 E.35113
G1 X71.592 Y114.004 E.01677
G1 X78.962 Y121.374 E.3274
G1 X78.427 Y121.374 E.01681
G1 X71.592 Y114.538 E.30366
G1 X71.592 Y115.072 E.01677
G1 X77.893 Y121.374 E.27994
G1 X77.359 Y121.374 E.01677
G1 X71.592 Y115.607 E.25619
G1 X71.592 Y116.141 E.01677
G1 X76.825 Y121.374 E.23247
G1 X76.29 Y121.374 E.01681
G1 X71.592 Y116.675 E.20873
G1 X71.592 Y117.209 E.01677
G1 X75.756 Y121.374 E.185
G1 X75.222 Y121.374 E.01677
G1 X71.592 Y117.744 E.16126
G1 X71.592 Y118.278 E.01677
G1 X74.688 Y121.374 E.13754
G1 X74.153 Y121.374 E.01681
G1 X71.592 Y118.812 E.11379
G1 X71.592 Y119.346 E.01677
G1 X73.619 Y121.374 E.09007
G1 X73.085 Y121.374 E.01677
G1 X71.592 Y119.881 E.06632
G1 X71.592 Y120.415 E.01677
G1 X72.551 Y121.374 E.0426
G1 X72.016 Y121.374 E.01681
G1 X71.422 Y120.78 E.02639
M204 S1000
; stop printing object oneNumTileSlotTest.stl id:2 copy 0
; printing object NumTileBottom.stl id:0 copy 0
;WIPE_START
G1 F8640
G1 X72.016 Y121.374 E-.19397
G1 X72.551 Y121.374 E-.12353
G1 X71.592 Y120.415 E-.31316
G1 X71.592 Y119.881 E-.1233
G1 X71.733 Y120.022 E-.04604
;WIPE_END
G1 Z.6 F720
G1 X139.008 Y101.915 F10800
G1 Z.2 F720
G1 E.8 F2100
M204 S800
;TYPE:Perimeter
;WIDTH:0.419999
G1 F1200
G1 X138.901 Y102.041 E.00518
G1 X138.854 Y102.267 E.00724
G1 X138.854 Y107.733 E.17138
G1 X138.901 Y107.959 E.00724
G1 X139.213 Y108.326 E.0151
G1 X139.213 Y108.599 E.00856
G1 X139.213 Y118.889 E.32264
G1 X139.205 Y118.96 E.00224
G1 X139.123 Y119.154 E.0066
G1 X138.956 Y119.213 E.00555
G1 X111.111 Y119.213 E.87306
G1 X111.04 Y119.205 E.00224
G1 X110.846 Y119.123 E.0066
G1 X110.787 Y118.956 E.00555
G1 X110.787 Y108.326 E.3333
G1 X111.099 Y107.959 E.0151
G1 X111.146 Y107.733 E.00724
G1 X111.146 Y102.267 E.17138
G1 X111.099 Y102.041 E.00724
G1 X110.787 Y101.674 E.0151
G1 X110.787 Y91.111 E.33119
G1 X110.795 Y91.04 E.00224
G1 X110.877 Y90.846 E.0066
G1 X111.044 Y90.787 E.00555
G1 X138.889 Y90.787 E.87306
G1 X138.96 Y90.795 E.00224
G1 X139.154 Y90.877 E.0066
G1 X139.213 Y91.044 E.00555
G1 X139.213 Y101.674 E.3333
G1 X139.047 Y101.87 E.00805
M204 S1000
G1 X139.259 Y102.201 F10800
M204 S800
;TYPE:External perimeter
G1 F1200
G1 X139.231 Y102.267 E.00225
G1 X139.231 Y107.733 E.17138
G1 X139.239 Y107.785 E.00165
G1 X139.59 Y108.17 E.01634
G1 X139.59 Y108.599 E.01345
G1 X139.59 Y118.889 E.32264
G1 X139.526 Y119.254 E.01162
G1 X139.364 Y119.456 E.00812
G1 X139.248 Y119.512 E.00404
G1 X138.977 Y119.59 E.00884
G1 X111.111 Y119.59 E.87372
G1 X110.746 Y119.526 E.01162
G1 X110.544 Y119.364 E.00812
G1 X110.488 Y119.248 E.00404
G1 X110.41 Y118.977 E.00884
G1 X110.41 Y108.17 E.33885
G1 X110.713 Y107.866 E.01346
G1 X110.769 Y107.733 E.00452
G1 X110.769 Y102.267 E.17138
G1 X110.761 Y102.215 E.00165
G1 X110.41 Y101.83 E.01634
G1 X110.41 Y91.111 E.33609
G1 X110.474 Y90.746 E.01162
G1 X110.636 Y90.544 E.00812
G1 X110.752 Y90.488 E.00404
G1 X111.023 Y90.41 E.00884
G1 X138.889 Y90.41 E.87372
G1 X139.254 Y90.474 E.01162
M73 P4 R62
G1 X139.456 Y90.636 E.00812
G1 X139.512 Y90.752 E.00404
G1 X139.59 Y91.023 E.00884
G1 X139.59 Y101.83 E.33885
G1 X139.287 Y102.134 E.01346
G1 X139.282 Y102.145 E.00038
M204 S1000
;WIPE_START
G1 F8640
G1 X139.259 Y102.201 E-.01398
G1 X139.231 Y102.267 E-.01655
G1 X139.231 Y105.6 E-.76947
;WIPE_END
G1 Z.6 F720
G1 X138.247 Y90.96 F10800
G1 Z.2 F720
G1 E.8 F2100
M204 S800
;TYPE:Solid infill
;WIDTH:0.421249
G1 F1200
G1 X138.874 Y91.587 E.02789
G1 X138.874 Y92.122 E.01683
G1 X137.881 Y91.13 E.04415
G1 X137.346 Y91.13 E.01683
G1 X138.874 Y92.657 E.06796
G1 X138.874 Y93.192 E.01683
G1 X136.811 Y91.129 E.09178
G1 X136.276 Y91.129 E.01683
G1 X138.874 Y93.727 E.11558
G1 X138.874 Y94.262 E.01683
G1 X135.741 Y91.129 E.13938
G1 X135.206 Y91.129 E.01683
G1 X138.874 Y94.797 E.16318
G1 X138.874 Y95.332 E.01683
G1 X134.671 Y91.129 E.18699
G1 X134.136 Y91.129 E.01683
G1 X138.874 Y95.867 E.21079
G1 X138.874 Y96.402 E.01683
G1 X133.601 Y91.129 E.23459
G1 X133.066 Y91.129 E.01683
M73 P5 R62
G1 X138.874 Y96.937 E.25839
G1 X138.874 Y97.472 E.01683
G1 X132.53 Y91.129 E.28221
G1 X131.995 Y91.129 E.01683
M73 Q5 S63
G1 X138.874 Y98.007 E.30601
G1 X138.874 Y98.542 E.01683
G1 X131.46 Y91.129 E.32982
G1 X130.925 Y91.129 E.01683
G1 X138.874 Y99.077 E.35362
G1 X138.874 Y99.612 E.01683
G1 X130.39 Y91.129 E.37742
G1 X129.855 Y91.129 E.01683
G1 X138.874 Y100.147 E.40122
G1 X138.874 Y100.682 E.01683
G1 X129.32 Y91.129 E.42502
G1 X128.785 Y91.129 E.01683
G1 X138.874 Y101.217 E.44882
G1 X138.874 Y101.533 E.00994
G1 X138.765 Y101.644 E.00489
G1 X128.25 Y91.128 E.46782
G1 X127.715 Y91.128 E.01683
G1 X138.569 Y101.983 E.4829
G1 X138.516 Y102.201 E.00706
G1 X138.516 Y102.465 E.0083
G1 X127.179 Y91.128 E.50437
G1 X126.644 Y91.128 E.01683
G1 X138.516 Y103 E.52817
G1 X138.516 Y103.535 E.01683
G1 X126.109 Y91.128 E.55197
G1 X125.574 Y91.128 E.01683
G1 X138.516 Y104.07 E.57577
G1 X138.516 Y104.605 E.01683
G1 X125.039 Y91.128 E.59957
G1 X124.504 Y91.128 E.01683
G1 X138.516 Y105.14 E.62337
G1 X138.516 Y105.675 E.01683
G1 X123.969 Y91.128 E.64718
G1 X123.434 Y91.128 E.01683
G1 X138.515 Y106.21 E.67095
G1 X138.515 Y106.744 E.0168
G1 X122.899 Y91.128 E.69473
G1 X122.364 Y91.128 E.01683
G1 X138.515 Y107.279 E.71854
G1 X138.523 Y107.822 E.01708
G1 X121.828 Y91.128 E.74271
G1 X121.293 Y91.128 E.01683
G1 X138.874 Y108.708 E.78213
G1 X138.874 Y109.243 E.01683
G1 X120.758 Y91.128 E.80593
G1 X120.223 Y91.128 E.01683
G1 X138.874 Y109.778 E.82973
G1 X138.874 Y110.313 E.01683
G1 X119.688 Y91.127 E.85356
G1 X119.153 Y91.127 E.01683
G1 X138.874 Y110.848 E.87736
G1 X138.874 Y111.383 E.01683
M73 Q5 S62
G1 X118.618 Y91.127 E.90116
G1 X118.083 Y91.127 E.01683
G1 X138.874 Y111.918 E.92496
G1 X138.874 Y112.453 E.01683
G1 X117.548 Y91.127 E.94876
G1 X117.013 Y91.127 E.01683
G1 X138.874 Y112.988 E.97257
G1 X138.874 Y113.523 E.01683
G1 X116.477 Y91.127 E.99639
