; generated by PrusaSlicer 2.7.1+MacOS-x64 on 2024-02-23 at 19:05:22 UTC


;
;
; 

; external perimeters extrusion width = 0.45mm
; perimeters extrusion width = 0.45mm
; infill extrusion width = 0.45mm
; solid infill extrusion width = 0.45mm
; top infill extrusion width = 0.40mm
; first layer extrusion width = 0.42mm

; external perimeters extrusion width = 0.45mm
; perimeters extrusion width = 0.45mm
; infill extrusion width = 0.45mm
; solid infill extrusion width = 0.45mm
; top infill extrusion width = 0.40mm
; first layer extrusion width = 0.42mm

M73 P0 R32
M73 Q0 S32
M201 X1000 Y1000 Z200 E5000 ; sets maximum accelerations, mm/sec^2
M203 X200 Y200 Z12 E120 ; sets maximum feedrates, mm / sec
M204 S1250 T1250 ; sets acceleration (S) and retract acceleration (R), mm/sec^2
M205 X8.00 Y8.00 Z0.40 E4.50 ; sets the jerk limits, mm/sec
M205 S0 T0 ; sets the minimum extruding and travel feed rate, mm/sec

; printing object smBoxBottom.stl id:0 copy 0
; stop printing object smBoxBottom.stl id:0 copy 0
; printing object smBoxTop.stl id:1 copy 0
; stop printing object smBoxTop.stl id:1 copy 0

;TYPE:Custom
M862.3 P "MK3S" ; printer model check
M862.1 P0.4 ; nozzle diameter check
M115 U3.13.2 ; tell printer latest fw version
G90 ; use absolute coordinates
M83 ; extruder relative mode
M104 S215 ; set extruder temp
M140 S60 ; set bed temp
M190 S60 ; wait for bed temp
M109 S215 ; wait for extruder temp
G28 W ; home all without mesh bed level
G80 X110.117 Y92.6175 W30.49 H48.2301 ; mesh bed levelling

G1 Z0.2 F720
G1 Y-3 F1000 ; go outside print area
G92 E0
G1 X60 E9 F1000 ; intro line
G1 X100 E12.5 F1000 ; intro line

G92 E0
M221 S95

; Don't change E values below. Excessive value can damage the printer.
M907 E430 ; set extruder motor current
G21 ; set units to millimeters
G90 ; use absolute coordinates
M83 ; use relative distances for extrusion
M900 K0.05 ; Filament gcode LA 1.5
M900 K30 ; Filament gcode LA 1.0

M107
;LAYER_CHANGE
;Z:0.2
;HEIGHT:0.2
;BEFORE_LAYER_CHANGE
G92 E0.0
;0.2


G1 E-.8 F2100
G1 Z.2 F720
;AFTER_LAYER_CHANGE
;0.2
G1 X111.352 Y93.647 F10800
G1 Z.2 F720
G1 E.8 F2100
M204 S800
;TYPE:Skirt/Brim
;WIDTH:0.42
G1 F1200
G1 X111.805 Y93.294 E.01801
G1 X112.428 Y93 E.0216
G1 X113.244 Y92.819 E.02621
G1 X136.5 Y92.807 E.72918
G1 X137.516 Y92.981 E.03232
G1 X138.211 Y93.311 E.02412
G1 X138.684 Y93.678 E.01877
G1 X139.289 Y94.459 E.03098
G1 X139.577 Y95.179 E.02431
G1 X139.691 Y95.903 E.02298
G1 X140.419 Y119.465 E.73912
G1 X140.419 Y137.465 E.56438
G1 X140.26 Y138.441 E.03101
G1 X139.975 Y139.089 E.0222
G1 X139.374 Y139.818 E.02962
G1 X138.921 Y140.171 E.01801
G1 X137.878 Y140.59 E.03524
G1 X137.23 Y140.659 E.02043
G1 X114.223 Y140.659 E.72137
G1 X113.575 Y140.59 E.02043
M73 P0 R31
G1 X112.926 Y140.374 E.02145
G1 X112.079 Y139.818 E.03177
G1 X111.49 Y139.11 E.02888
G1 X111.192 Y138.441 E.02296
G1 X111.035 Y137.539 E.02871
G1 X110.306 Y114.004 E.73828
G1 X110.307 Y96 E.5645
G1 X110.466 Y95.024 E.03101
G1 X110.751 Y94.376 E.0222
G1 X111.314 Y93.693 E.02775
M204 S1000
; printing object smBoxBottom.stl id:0 copy 0
;WIPE_START
G1 F8640
G1 X111.352 Y93.647 E-.01378
G1 X111.805 Y93.294 E-.13261
G1 X112.428 Y93 E-.15907
G1 X113.244 Y92.819 E-.193
G1 X114.55 Y92.818 E-.30154
;WIPE_END
G1 Z.6 F720
G1 X136.141 Y96.359 F10800
G1 Z.2 F720
G1 E.8 F2100
M204 S800
;TYPE:Perimeter
;WIDTH:0.419999
G1 F1200
G1 X136.14 Y113.64 E.54183
G1 X113.86 Y113.64 E.69857
G1 X113.86 Y96.36 E.5418
G1 X136.081 Y96.359 E.69672
M204 S1000
G1 X136.518 Y96.014 F10800
M73 Q1 S32
M204 S800
;TYPE:External perimeter
G1 F1200
G1 X136.517 Y113.956 E.56256
G1 X136.445 Y114.017 E.00296
M73 P1 R31
G1 X113.575 Y114.017 E.71707
G1 X113.483 Y113.964 E.00333
G1 X113.483 Y96.075 E.5609
G1 X113.536 Y95.983 E.00333
G1 X136.45 Y95.982 E.71845
G1 X136.464 Y95.989 E.00049
M73 Q1 S31
M204 S1000
;WIPE_START
G1 F8640
G1 X136.518 Y96.014 E-.01374
G1 X136.518 Y99.419 E-.78626
;WIPE_END
G1 Z.6 F720
G1 X135.208 Y96.529 F10800
G1 Z.2 F720
G1 E.8 F2100
M204 S800
;TYPE:Solid infill
;WIDTH:0.420291
G1 F1200
G1 X135.801 Y97.122 E.02631
G1 X135.801 Y97.656 E.01676
G1 X134.844 Y96.699 E.04247
G1 X134.311 Y96.699 E.01672
G1 X135.801 Y98.189 E.06612
G1 X135.801 Y98.723 E.01676
G1 X133.777 Y96.699 E.08982
G1 X133.243 Y96.699 E.01676
G1 X135.801 Y99.257 E.11351
G1 X135.801 Y99.79 E.01672
G1 X132.71 Y96.699 E.13717
G1 X132.176 Y96.699 E.01676
G1 X135.801 Y100.324 E.16086
G1 X135.801 Y100.858 E.01676
G1 X131.642 Y96.699 E.18456
G1 X131.109 Y96.699 E.01672
G1 X135.801 Y101.391 E.20821
G1 X135.801 Y101.925 E.01676
G1 X130.575 Y96.699 E.23191
G1 X130.041 Y96.699 E.01676
G1 X135.801 Y102.459 E.25561
G1 X135.801 Y102.992 E.01672
G1 X129.508 Y96.699 E.27926
G1 X128.974 Y96.699 E.01676
G1 X135.801 Y103.526 E.30295
G1 X135.801 Y104.06 E.01676
G1 X128.44 Y96.699 E.32665
G1 X127.907 Y96.699 E.01672
G1 X135.801 Y104.593 E.3503
G1 X135.801 Y105.127 E.01676
G1 X127.373 Y96.699 E.374
G1 X126.839 Y96.699 E.01676
G1 X135.801 Y105.661 E.3977
G1 X135.801 Y106.194 E.01672
G1 X126.306 Y96.699 E.42135
G1 X125.772 Y96.699 E.01676
G1 X135.801 Y106.728 E.44505
G1 X135.801 Y107.262 E.01676
G1 X125.238 Y96.699 E.46874
G1 X124.705 Y96.699 E.01672
G1 X135.801 Y107.795 E.4924
G1 X135.801 Y108.329 E.01676
G1 X124.171 Y96.699 E.51609
G1 X123.637 Y96.699 E.01676
G1 X135.801 Y108.863 E.53979
G1 X135.801 Y109.396 E.01672
G1 X123.104 Y96.699 E.56344
G1 X122.57 Y96.699 E.01676
G1 X135.801 Y109.93 E.58714
G1 X135.801 Y110.464 E.01676
G1 X122.036 Y96.699 E.61083
G1 X121.503 Y96.699 E.01672
G1 X135.801 Y110.997 E.63449
G1 X135.801 Y111.531 E.01676
M73 P2 R31
M73 Q2 S31
G1 X120.969 Y96.699 E.65818
G1 X120.435 Y96.699 E.01676
G1 X135.801 Y112.065 E.68188
G1 X135.801 Y112.598 E.01672
G1 X119.902 Y96.699 E.70553
G1 X119.368 Y96.699 E.01676
G1 X135.801 Y113.132 E.72923
G1 X135.801 Y113.301 E.0053
G1 X135.436 Y113.301 E.01145
G1 X118.834 Y96.699 E.73673
G1 X118.301 Y96.699 E.01672
G1 X134.902 Y113.301 E.73671
G1 X134.369 Y113.301 E.01672
G1 X117.767 Y96.699 E.73673
G1 X117.233 Y96.699 E.01676
G1 X133.835 Y113.301 E.73673
G1 X133.301 Y113.301 E.01676
G1 X116.7 Y96.699 E.73671
G1 X116.166 Y96.699 E.01676
G1 X132.768 Y113.301 E.73673
G1 X132.234 Y113.301 E.01676
G1 X115.632 Y96.699 E.73673
G1 X115.099 Y96.699 E.01672
G1 X131.7 Y113.301 E.73671
G1 X131.167 Y113.301 E.01672
G1 X114.565 Y96.699 E.73673
G1 X114.199 Y96.699 E.01148
G1 X114.199 Y96.867 E.00527
G1 X130.633 Y113.301 E.72927
G1 X130.099 Y113.301 E.01676
G1 X114.199 Y97.401 E.70558
G1 X114.199 Y97.934 E.01672
G1 X129.566 Y113.301 E.68193
G1 X129.032 Y113.301 E.01676
G1 X114.199 Y98.468 E.65823
G1 X114.199 Y99.002 E.01676
M73 P3 R31
M73 Q3 S31
G1 X128.498 Y113.301 E.63453
G1 X127.965 Y113.301 E.01672
G1 X114.199 Y99.535 E.61088
G1 X114.199 Y100.069 E.01676
G1 X127.431 Y113.301 E.58718
G1 X126.897 Y113.301 E.01676
G1 X114.199 Y100.603 E.56349
G1 X114.199 Y101.136 E.01672
G1 X126.364 Y113.301 E.53983
G1 X125.83 Y113.301 E.01676
G1 X114.199 Y101.67 E.51614
G1 X114.199 Y102.204 E.01676
G1 X125.296 Y113.301 E.49244
G1 X124.762 Y113.301 E.01676
G1 X114.199 Y102.738 E.46874
G1 X114.199 Y103.271 E.01672
G1 X124.229 Y113.301 E.44509
G1 X123.695 Y113.301 E.01676
G1 X114.199 Y103.805 E.42139
G1 X114.199 Y104.339 E.01676
G1 X123.161 Y113.301 E.3977
G1 X122.628 Y113.301 E.01672
G1 X114.199 Y104.872 E.37404
G1 X114.199 Y105.406 E.01676
G1 X122.094 Y113.301 E.35035
G1 X121.56 Y113.301 E.01676
G1 X114.199 Y105.94 E.32665
G1 X114.199 Y106.473 E.01672
G1 X121.027 Y113.301 E.303
G1 X120.493 Y113.301 E.01676
G1 X114.199 Y107.007 E.2793
G1 X114.199 Y107.541 E.01676
G1 X119.959 Y113.301 E.25561
G1 X119.426 Y113.301 E.01672
M73 P3 R30
G1 X114.199 Y108.074 E.23195
G1 X114.199 Y108.608 E.01676
G1 X118.892 Y113.301 E.20826
G1 X118.358 Y113.301 E.01676
G1 X114.199 Y109.142 E.18456
G1 X114.199 Y109.675 E.01672
G1 X117.825 Y113.301 E.16091
G1 X117.291 Y113.301 E.01676
G1 X114.199 Y110.209 E.13721
G1 X114.199 Y110.743 E.01676
G1 X116.757 Y113.301 E.11351
G1 X116.224 Y113.301 E.01672
G1 X114.199 Y111.276 E.08986
G1 X114.199 Y111.81 E.01676
G1 X115.69 Y113.301 E.06616
G1 X115.156 Y113.301 E.01676
G1 X114.199 Y112.344 E.04247
G1 X114.199 Y112.877 E.01672
G1 X114.792 Y113.471 E.02634
M204 S1000
; stop printing object smBoxBottom.stl id:0 copy 0
; printing object smBoxTop.stl id:1 copy 0
;WIPE_START
G1 F8640
G1 X114.199 Y112.878 E-.19364
G1 X114.199 Y112.344 E-.1233
G1 X115.156 Y113.301 E-.3125
G1 X115.69 Y113.301 E-.1233
G1 X115.545 Y113.156 E-.04726
;WIPE_END
G1 Z.6 F720
G1 X114.586 Y137.105 F10800
G1 Z.2 F720
G1 E.8 F2100
M204 S800
;TYPE:Perimeter
;WIDTH:0.419999
G1 F1200
G1 X114.586 Y119.825 E.5418
G1 X136.867 Y119.825 E.6986
G1 X136.867 Y137.105 E.5418
G1 X114.646 Y137.105 E.69672
M73 P4 R30
M73 Q4 S31
M204 S1000
G1 X114.27 Y137.482 F10800
M204 S800
;TYPE:External perimeter
G1 F1200
G1 X114.209 Y137.41 E.00296
G1 X114.209 Y119.54 E.5603
G1 X114.263 Y119.448 E.00334
G1 X137.19 Y119.448 E.71886
G1 X137.244 Y119.54 E.00334
G1 X137.244 Y137.391 E.5597
G1 X137.19 Y137.482 E.00332
G1 X114.33 Y137.482 E.71676
M204 S1000
;WIPE_START
G1 F8640
M73 Q4 S30
G1 X114.27 Y137.482 E-.01385
G1 X114.209 Y137.41 E-.02179
G1 X114.209 Y134.1 E-.76436
;WIPE_END
G1 Z.6 F720
G1 X135.934 Y119.995 F10800
G1 Z.2 F720
G1 E.8 F2100
M204 S800
;TYPE:Solid infill
;WIDTH:0.42028
G1 F1200
G1 X136.527 Y120.588 E.02631
G1 X136.527 Y121.121 E.01672
G1 X135.57 Y120.164 E.04247
G1 X135.036 Y120.164 E.01676
G1 X136.527 Y121.655 E.06616
G1 X136.527 Y122.189 E.01676
G1 X134.503 Y120.164 E.08984
G1 X133.969 Y120.164 E.01676
G1 X136.527 Y122.722 E.11351
G1 X136.527 Y123.256 E.01676
G1 X133.435 Y120.164 E.13721
G1 X132.902 Y120.164 E.01672
G1 X136.527 Y123.79 E.16088
G1 X136.527 Y124.323 E.01672
G1 X132.368 Y120.164 E.18455
G1 X131.834 Y120.164 E.01676
G1 X136.527 Y124.857 E.20825
G1 X136.527 Y125.391 E.01676
G1 X131.301 Y120.164 E.23192
G1 X130.767 Y120.164 E.01676
G1 X136.527 Y125.924 E.2556
G1 X136.527 Y126.458 E.01676
G1 X130.233 Y120.164 E.27929
G1 X129.7 Y120.164 E.01672
G1 X136.527 Y126.992 E.30297
G1 X136.527 Y127.525 E.01672
G1 X129.166 Y120.164 E.32664
G1 X128.632 Y120.164 E.01676
G1 X136.527 Y128.059 E.35034
G1 X136.527 Y128.593 E.01676
G1 X128.099 Y120.164 E.37401
G1 X127.565 Y120.164 E.01676
G1 X136.527 Y129.126 E.39769
G1 X136.527 Y129.66 E.01676
G1 X127.031 Y120.164 E.42138
G1 X126.498 Y120.164 E.01672
G1 X136.527 Y130.194 E.44506
G1 X136.527 Y130.727 E.01672
G1 X125.964 Y120.164 E.46873
G1 X125.43 Y120.164 E.01676
G1 X136.527 Y131.261 E.49243
G1 X136.527 Y131.795 E.01676
G1 X124.897 Y120.164 E.5161
G1 X124.363 Y120.164 E.01676
G1 X136.527 Y132.328 E.53977
G1 X136.527 Y132.862 E.01676
G1 X123.829 Y120.164 E.56347
G1 X123.296 Y120.164 E.01672
G1 X136.527 Y133.396 E.58714
G1 X136.527 Y133.929 E.01672
G1 X122.762 Y120.164 E.61082
G1 X122.228 Y120.164 E.01676
M73 P5 R30
M73 Q5 S30
G1 X136.527 Y134.463 E.63451
G1 X136.527 Y134.997 E.01676
G1 X121.695 Y120.164 E.65819
G1 X121.161 Y120.164 E.01676
G1 X136.527 Y135.53 E.68186
G1 X136.527 Y136.064 E.01676
G1 X120.627 Y120.164 E.70556
G1 X120.094 Y120.164 E.01672
G1 X136.527 Y136.598 E.72923
G1 X136.527 Y136.766 E.00527
G1 X136.162 Y136.766 E.01145
G1 X119.56 Y120.164 E.73671
G1 X119.026 Y120.164 E.01676
G1 X135.628 Y136.766 E.73671
G1 X135.095 Y136.766 E.01672
G1 X118.493 Y120.164 E.73671
G1 X117.959 Y120.164 E.01676
G1 X134.561 Y136.766 E.73671
G1 X134.027 Y136.766 E.01676
G1 X117.425 Y120.164 E.73671
G1 X116.892 Y120.164 E.01672
G1 X133.494 Y136.766 E.73671
G1 X132.96 Y136.766 E.01676
G1 X116.358 Y120.164 E.73671
G1 X115.824 Y120.164 E.01676
G1 X132.426 Y136.766 E.73671
G1 X131.893 Y136.766 E.01672
G1 X115.291 Y120.164 E.73671
G1 X114.925 Y120.164 E.01148
G1 X114.925 Y120.333 E.0053
G1 X131.359 Y136.766 E.72923
G1 X130.825 Y136.766 E.01676
G1 X114.925 Y120.866 E.70556
G1 X114.925 Y121.4 E.01676
M73 P6 R30
M73 Q6 S30
G1 X130.292 Y136.766 E.68188
G1 X129.758 Y136.766 E.01676
G1 X114.925 Y121.934 E.65819
G1 X114.925 Y122.467 E.01672
G1 X129.224 Y136.766 E.63451
G1 X128.691 Y136.766 E.01672
G1 X114.925 Y123.001 E.61084
G1 X114.925 Y123.535 E.01676
G1 X128.157 Y136.766 E.58714
G1 X127.623 Y136.766 E.01676
G1 X114.925 Y124.068 E.56347
G1 X114.925 Y124.602 E.01676
G1 X127.09 Y136.766 E.5398
G1 X126.556 Y136.766 E.01676
G1 X114.925 Y125.136 E.5161
G1 X114.925 Y125.669 E.01672
G1 X126.022 Y136.766 E.49243
G1 X125.489 Y136.766 E.01672
G1 X114.925 Y126.203 E.46875
G1 X114.925 Y126.737 E.01676
G1 X124.955 Y136.766 E.44506
G1 X124.421 Y136.766 E.01676
G1 X114.925 Y127.27 E.42138
G1 X114.925 Y127.804 E.01676
G1 X123.888 Y136.766 E.39771
G1 X123.354 Y136.766 E.01676
G1 X114.925 Y128.338 E.37401
G1 X114.925 Y128.871 E.01672
G1 X122.82 Y136.766 E.35034
G1 X122.287 Y136.766 E.01672
G1 X114.925 Y129.405 E.32666
G1 X114.925 Y129.939 E.01676
G1 X121.753 Y136.766 E.30297
G1 X121.219 Y136.766 E.01676
G1 X114.925 Y130.472 E.27929
G1 X114.925 Y131.006 E.01676
G1 X120.686 Y136.766 E.25562
G1 X120.152 Y136.766 E.01676
M73 P6 R29
G1 X114.925 Y131.54 E.23192
G1 X114.925 Y132.073 E.01672
G1 X119.618 Y136.766 E.20825
G1 X119.085 Y136.766 E.01672
G1 X114.925 Y132.607 E.18458
G1 X114.925 Y133.141 E.01676
G1 X118.551 Y136.766 E.16088
G1 X118.017 Y136.766 E.01676
G1 X114.925 Y133.674 E.13721
G1 X114.925 Y134.208 E.01676
G1 X117.484 Y136.766 E.11353
G1 X116.95 Y136.766 E.01676
G1 X114.925 Y134.742 E.08984
G1 X114.925 Y135.275 E.01672
G1 X116.416 Y136.766 E.06616
G1 X115.883 Y136.766 E.01672
G1 X114.925 Y135.809 E.04249
G1 X114.925 Y136.343 E.01676
G1 X115.519 Y136.936 E.02634
M204 S1000
; stop printing object smBoxTop.stl id:1 copy 0
M106 S84.15
;LAYER_CHANGE
;Z:0.35
;HEIGHT:0.15
;BEFORE_LAYER_CHANGE
G92 E0.0
;0.35


;WIPE_START
G1 F8640
G1 X114.925 Y136.343 E-.19381
G1 X114.925 Y135.809 E-.1233
G1 X115.883 Y136.766 E-.31267
G1 X116.416 Y136.766 E-.12307
G1 X116.272 Y136.622 E-.04715
;WIPE_END
G1 Z.35 F720
;AFTER_LAYER_CHANGE
;0.35
M104 S210 ; set temperature
G1 Z.75
G1 X116.272 Y140.659 F10800
G1 Z.35 F720
G1 E.8 F2100
;TYPE:Skirt/Brim
;WIDTH:0.42
G1 F3000
G1 X114.223 Y140.659 E.04955
G1 X113.575 Y140.59 E.01576
G1 X112.926 Y140.374 E.01654
G1 X112.079 Y139.818 E.0245
G1 X111.49 Y139.11 E.02227
G1 X111.192 Y138.441 E.01771
G1 X111.035 Y137.539 E.02214
G1 X110.306 Y114.004 E.56946
G1 X110.307 Y96 E.43542
G1 X110.466 Y95.024 E.02392
M73 P7 R29
G1 X110.751 Y94.376 E.01712
G1 X111.352 Y93.647 E.02285
G1 X111.805 Y93.294 E.01389
G1 X112.428 Y93 E.01666
G1 X113.244 Y92.819 E.02021
G1 X136.5 Y92.807 E.56244
G1 X137.516 Y92.981 E.02493
M73 Q7 S30
G1 X138.211 Y93.311 E.01861
G1 X138.684 Y93.678 E.01448
G1 X139.289 Y94.459 E.02389
G1 X139.577 Y95.179 E.01875
G1 X139.691 Y95.903 E.01773
G1 X140.419 Y119.465 E.57012
G1 X140.419 Y137.465 E.43533
G1 X140.26 Y138.441 E.02392
G1 X139.975 Y139.089 E.01712
G1 X139.374 Y139.818 E.02285
G1 X138.921 Y140.171 E.01389
G1 X137.878 Y140.59 E.02718
G1 X137.23 Y140.659 E.01576
G1 X116.332 Y140.659 E.50542
; printing object smBoxBottom.stl id:0 copy 0
;WIPE_START
G1 F8640
G1 X116.272 Y140.659 E-.01385
G1 X114.223 Y140.659 E-.47312
G1 X113.575 Y140.59 E-.15047
G1 X112.926 Y140.374 E-.15794
G1 X112.909 Y140.363 E-.00462
;WIPE_END
G1 Z.75 F720
G1 X136.514 Y95.97 F10800
G1 Z.35 F720
G1 E.8 F2100
M204 S800
;TYPE:Perimeter
;WIDTH:0.449999
G1 F1466.86
G1 X136.545 Y96.072 E.00278
G1 F1468.91
G1 X136.542 Y113.413 E.45183
G1 F1476.264
G1 X136.542 Y113.928 E.01342
G1 F1455.276
G1 X136.531 Y113.984 E.00149
G1 X136.453 Y114.042 E.00253
G1 F1468.053
G1 X114.12 Y114.042 E.5819
G1 F1487.026
G1 X113.605 Y114.042 E.01342
G1 F1466.838
G1 X113.514 Y114.023 E.00242
G1 F1464.964
G1 X113.458 Y113.92 E.00305
G1 F1468.139
G1 X113.458 Y96.62 E.45076
G1 F1476.004
G1 X113.458 Y96.105 E.01342
G1 F1466.834
G1 X113.477 Y96.014 E.00242
G1 F1464.957
G1 X113.58 Y95.958 E.00305
G1 F1469.624
G1 X135.923 Y95.962 E.58216
G1 F1486.826
G1 X136.434 Y95.962 E.01331
G1 F1467.9
G1 X136.454 Y95.964 E.00052
M204 S1000
G1 X136.901 Y95.807 F10800
M204 S800
;TYPE:External perimeter
G1 F1106.392
G1 X136.962 Y96.072 E.00709
G1 X136.96 Y112.995 E.44094
G1 F1112.548
G1 X136.96 Y113.928 E.02431
G1 F1109.725
G1 X136.902 Y114.206 E.0074
