; generated by PrusaSlicer 2.7.1+MacOS-x64 on 2024-02-23 at 21:04:55 UTC


;
;
; 

; external perimeters extrusion width = 0.45mm
; perimeters extrusion width = 0.45mm
; infill extrusion width = 0.45mm
; solid infill extrusion width = 0.45mm
; top infill extrusion width = 0.40mm
; support material extrusion width = 0.35mm
; first layer extrusion width = 0.42mm

; external perimeters extrusion width = 0.45mm
; perimeters extrusion width = 0.45mm
; infill extrusion width = 0.45mm
; solid infill extrusion width = 0.45mm
; top infill extrusion width = 0.40mm
; support material extrusion width = 0.35mm
; first layer extrusion width = 0.42mm

M73 P0 R55
M73 Q0 S55
M201 X1000 Y1000 Z200 E5000 ; sets maximum accelerations, mm/sec^2
M203 X200 Y200 Z12 E120 ; sets maximum feedrates, mm / sec
M204 S1250 T1250 ; sets acceleration (S) and retract acceleration (R), mm/sec^2
M205 X8.00 Y8.00 Z0.40 E4.50 ; sets the jerk limits, mm/sec
M205 S0 T0 ; sets the minimum extruding and travel feed rate, mm/sec

; printing object smBoxBottomNum1.stl id:1 copy 0
; stop printing object smBoxBottomNum1.stl id:1 copy 0
; printing object smBoxTopNum1.stl id:0 copy 0
; stop printing object smBoxTopNum1.stl id:0 copy 0

;TYPE:Custom
M862.3 P "MK3S" ; printer model check
M862.1 P0.4 ; nozzle diameter check
M115 U3.13.2 ; tell printer latest fw version
G90 ; use absolute coordinates
M83 ; extruder relative mode
M104 S215 ; set extruder temp
M140 S60 ; set bed temp
M190 S60 ; wait for bed temp
M109 S215 ; wait for extruder temp
G28 W ; home all without mesh bed level
G80 X103.261 Y83.2609 W73.3968 H43.4782 ; mesh bed levelling

G1 Z0.2 F720
G1 Y-3 F1000 ; go outside print area
G92 E0
G1 X60 E9 F1000 ; intro line
G1 X100 E12.5 F1000 ; intro line

G92 E0
M221 S95

; Don't change E values below. Excessive value can damage the printer.
M907 E430 ; set extruder motor current
G21 ; set units to millimeters
G90 ; use absolute coordinates
M83 ; use relative distances for extrusion
M900 K0.05 ; Filament gcode LA 1.5
M900 K30 ; Filament gcode LA 1.0

M107
;LAYER_CHANGE
;Z:0.2
;HEIGHT:0.2
;BEFORE_LAYER_CHANGE
G92 E0.0
;0.2


G1 E-.8 F2100
G1 Z.2 F720
;AFTER_LAYER_CHANGE
;0.2
G1 X103.841 Y84.52 F10800
G1 Z.2 F720
G1 E.8 F2100
M204 S800
;TYPE:Skirt/Brim
;WIDTH:0.42
G1 F1200
G1 X104.887 Y83.643 E.0428
G1 X105.827 Y83.449 E.03009
G1 X144.525 Y83.476 E1.21335
G1 X173.802 Y87.857 E.92818
G1 X174.686 Y88.145 E.02915
G1 X175.185 Y88.448 E.0183
G1 X175.608 Y88.82 E.01766
G1 X176.09 Y89.503 E.02621
G1 X176.389 Y90.315 E.02713
G1 X176.469 Y91 E.02162
G1 X176.469 Y119 E.87792
G1 X176.405 Y119.627 E.01976
G1 X176.232 Y120.191 E.0185
G1 X175.832 Y120.906 E.02569
G1 X175.511 Y121.279 E.01543
G1 X174.777 Y121.81 E.0284
G1 X173.722 Y122.151 E.03476
G1 X144.173 Y126.551 E.9367
G1 X105.827 Y126.551 E1.20231
G1 X104.52 Y126.159 E.04278
G1 X103.643 Y125.113 E.0428
G1 X103.449 Y124.173 E.03009
G1 X103.449 Y85.827 E1.20231
G1 X103.824 Y84.577 E.04092
M204 S1000
; printing object smBoxBottomNum1.stl id:1 copy 0
;WIPE_START
G1 F8640
G1 X103.841 Y84.52 E-.01373
G1 X104.887 Y83.643 E-.31518
G1 X105.827 Y83.449 E-.22162
G1 X106.907 Y83.45 E-.24947
;WIPE_END
G1 Z.6 F720
G1 X145.631 Y91.352 F10800
G1 Z.2 F720
G1 E.8 F2100
M204 S800
;TYPE:Perimeter
;WIDTH:0.419999
G1 F1200
G1 X172.928 Y91.352 E.85588
G1 X172.928 Y118.648 E.85585
G1 X145.631 Y118.648 E.85588
G1 X145.631 Y91.412 E.85396
M204 S1000
G1 X145.254 Y91.077 F10800
M204 S800
;TYPE:External perimeter
G1 F1200
G1 X145.342 Y90.975 E.00422
G1 X173.196 Y90.975 E.87334
G1 X173.26 Y90.983 E.00202
G1 X173.305 Y91.083 E.00344
G1 X173.305 Y118.938 E.87337
G1 X173.202 Y119.025 E.00423
G1 X145.336 Y119.025 E.87372
G1 X145.254 Y118.943 E.00364
G1 X145.254 Y91.137 E.87184
M204 S1000
;WIPE_START
G1 F8640
M73 P0 R54
G1 X145.254 Y91.077 E-.01385
G1 X145.342 Y90.975 E-.03111
G1 X148.612 Y90.975 E-.75504
;WIPE_END
G1 Z.6 F720
G1 X171.994 Y91.521 F10800
G1 Z.2 F720
G1 E.8 F2100
M204 S800
;TYPE:Solid infill
;WIDTH:0.420907
G1 F1200
G1 X172.589 Y92.116 E.02645
G1 X172.589 Y92.65 E.01678
G1 X171.629 Y91.691 E.04265
G1 X171.095 Y91.691 E.01678
G1 X172.589 Y93.185 E.06641
G1 X172.589 Y93.72 E.01681
G1 X170.56 Y91.691 E.09019
G1 X170.026 Y91.691 E.01678
G1 X172.589 Y94.254 E.11392
G1 X172.589 Y94.789 E.01681
G1 X169.491 Y91.691 E.1377
G1 X168.957 Y91.691 E.01678
G1 X172.589 Y95.323 E.16144
G1 X172.589 Y95.858 E.01681
G1 X168.422 Y91.691 E.18522
G1 X167.887 Y91.691 E.01681
G1 X172.589 Y96.392 E.20897
G1 X172.589 Y96.927 E.01681
G1 X167.353 Y91.691 E.23273
G1 X166.818 Y91.691 E.01681
G1 X172.589 Y97.461 E.25649
G1 X172.589 Y97.996 E.01681
M73 Q1 S55
G1 X166.284 Y91.691 E.28025
G1 X165.749 Y91.691 E.01681
M73 P1 R54
G1 X172.589 Y98.531 E.30403
G1 X172.589 Y99.065 E.01678
G1 X165.215 Y91.691 E.32776
G1 X164.68 Y91.691 E.01681
G1 X172.589 Y99.6 E.35154
G1 X172.589 Y100.134 E.01678
G1 X164.146 Y91.691 E.37528
G1 X163.611 Y91.691 E.01681
G1 X172.589 Y100.669 E.39906
G1 X172.589 Y101.203 E.01678
G1 X163.076 Y91.691 E.42282
G1 X162.542 Y91.691 E.01678
G1 X172.589 Y101.738 E.44657
G1 X172.589 Y102.272 E.01678
G1 X162.007 Y91.691 E.47033
G1 X161.473 Y91.691 E.01678
G1 X172.589 Y102.807 E.49409
G1 X172.589 Y103.341 E.01678
G1 X160.938 Y91.691 E.51785
G1 X160.404 Y91.691 E.01678
G1 X172.589 Y103.876 E.5416
G1 X172.589 Y104.411 E.01681
G1 X159.869 Y91.691 E.56538
G1 X159.335 Y91.691 E.01678
G1 X172.589 Y104.945 E.58912
G1 X172.589 Y105.48 E.01681
G1 X158.8 Y91.691 E.6129
G1 X158.266 Y91.691 E.01678
G1 X172.589 Y106.014 E.63663
G1 X172.589 Y106.549 E.01681
G1 X157.731 Y91.691 E.66041
G1 X157.196 Y91.691 E.01681
G1 X172.589 Y107.083 E.68417
G1 X172.589 Y107.618 E.01681
G1 X156.662 Y91.691 E.70793
G1 X156.127 Y91.691 E.01681
M73 Q1 S54
G1 X172.589 Y108.152 E.73169
G1 X172.589 Y108.687 E.01681
G1 X155.593 Y91.691 E.75544
G1 X155.058 Y91.691 E.01681
G1 X172.589 Y109.222 E.77922
G1 X172.589 Y109.756 E.01678
G1 X154.524 Y91.691 E.80296
G1 X153.989 Y91.691 E.01681
G1 X172.589 Y110.291 E.82674
G1 X172.589 Y110.825 E.01678
G1 X153.455 Y91.691 E.85048
G1 X152.92 Y91.691 E.01681
G1 X172.589 Y111.36 E.87426
G1 X172.589 Y111.894 E.01678
G1 X152.385 Y91.691 E.89801
G1 X151.851 Y91.691 E.01678
G1 X172.589 Y112.429 E.92177
G1 X172.589 Y112.963 E.01678
G1 X151.316 Y91.691 E.94553
G1 X150.782 Y91.691 E.01678
G1 X172.589 Y113.498 E.96929
G1 X172.589 Y114.033 E.01681
G1 X150.247 Y91.691 E.99307
G1 X149.713 Y91.691 E.01678
G1 X172.589 Y114.567 E1.0168
G1 X172.589 Y115.102 E.01681
M73 P2 R54
M73 Q2 S54
G1 X149.178 Y91.691 E1.04058
G1 X148.644 Y91.691 E.01678
G1 X172.589 Y115.636 E1.06432
G1 X172.589 Y116.171 E.01681
G1 X148.109 Y91.691 E1.0881
G1 X147.574 Y91.691 E.01681
G1 X172.589 Y116.705 E1.11185
G1 X172.589 Y117.24 E.01681
G1 X147.04 Y91.691 E1.13561
G1 X146.505 Y91.691 E.01681
G1 X172.589 Y117.774 E1.15937
G1 X172.589 Y118.309 E.01681
G1 X145.971 Y91.691 E1.18313
G1 X145.971 Y92.226 E.01681
G1 X172.054 Y118.309 E1.15935
G1 X171.52 Y118.309 E.01678
G1 X145.971 Y92.76 E1.13561
G1 X145.971 Y93.295 E.01681
G1 X170.985 Y118.309 E1.11183
G1 X170.45 Y118.309 E.01681
G1 X145.971 Y93.829 E1.08807
G1 X145.971 Y94.364 E.01681
G1 X169.916 Y118.309 E1.06432
G1 X169.381 Y118.309 E.01681
M73 P2 R53
G1 X145.971 Y94.898 E1.04056
G1 X145.971 Y95.433 E.01681
G1 X168.847 Y118.309 E1.0168
G1 X168.312 Y118.309 E.01681
G1 X145.971 Y95.967 E.99304
G1 X145.971 Y96.502 E.01681
G1 X167.778 Y118.309 E.96929
G1 X167.243 Y118.309 E.01681
G1 X145.971 Y97.037 E.94551
G1 X145.971 Y97.571 E.01678
G1 X166.709 Y118.309 E.92177
G1 X166.174 Y118.309 E.01681
G1 X145.971 Y98.106 E.89799
G1 X145.971 Y98.64 E.01678
M73 P3 R53
M73 Q3 S54
G1 X165.64 Y118.309 E.87426
G1 X165.105 Y118.309 E.01681
G1 X145.971 Y99.175 E.85048
G1 X145.971 Y99.709 E.01678
G1 X164.57 Y118.309 E.82672
G1 X164.036 Y118.309 E.01678
G1 X145.971 Y100.244 E.80296
G1 X145.971 Y100.778 E.01678
G1 X163.501 Y118.309 E.7792
G1 X162.967 Y118.309 E.01678
G1 X145.971 Y101.313 E.75544
G1 X145.971 Y101.848 E.01681
G1 X162.432 Y118.309 E.73166
G1 X161.898 Y118.309 E.01678
M73 Q3 S53
G1 X145.971 Y102.382 E.70793
G1 X145.971 Y102.917 E.01681
G1 X161.363 Y118.309 E.68415
G1 X160.829 Y118.309 E.01678
G1 X145.971 Y103.451 E.66041
G1 X145.971 Y103.986 E.01681
G1 X160.294 Y118.309 E.63663
G1 X159.759 Y118.309 E.01681
G1 X145.971 Y104.52 E.61288
G1 X145.971 Y105.055 E.01681
G1 X159.225 Y118.309 E.58912
G1 X158.69 Y118.309 E.01681
G1 X145.971 Y105.589 E.56536
G1 X145.971 Y106.124 E.01681
G1 X158.156 Y118.309 E.5416
G1 X157.621 Y118.309 E.01681
G1 X145.971 Y106.659 E.51782
G1 X145.971 Y107.193 E.01678
G1 X157.087 Y118.309 E.49409
G1 X156.552 Y118.309 E.01681
G1 X145.971 Y107.728 E.47031
G1 X145.971 Y108.262 E.01678
G1 X156.018 Y118.309 E.44657
G1 X155.483 Y118.309 E.01681
G1 X145.971 Y108.797 E.42279
G1 X145.971 Y109.331 E.01678
G1 X154.948 Y118.309 E.39904
G1 X154.414 Y118.309 E.01678
G1 X145.971 Y109.866 E.37528
G1 X145.971 Y110.4 E.01678
G1 X153.879 Y118.309 E.35152
G1 X153.345 Y118.309 E.01678
G1 X145.971 Y110.935 E.32776
G1 X145.971 Y111.47 E.01681
G1 X152.81 Y118.309 E.30398
G1 X152.276 Y118.309 E.01678
G1 X145.971 Y112.004 E.28025
G1 X145.971 Y112.539 E.01681
G1 X151.741 Y118.309 E.25647
G1 X151.207 Y118.309 E.01678
G1 X145.971 Y113.073 E.23273
G1 X145.971 Y113.608 E.01681
G1 X150.672 Y118.309 E.20895
G1 X150.137 Y118.309 E.01681
G1 X145.971 Y114.142 E.18519
G1 X145.971 Y114.677 E.01681
G1 X149.603 Y118.309 E.16144
G1 X149.068 Y118.309 E.01681
G1 X145.971 Y115.211 E.13768
G1 X145.971 Y115.746 E.01681
G1 X148.534 Y118.309 E.11392
G1 X147.999 Y118.309 E.01681
G1 X145.971 Y116.281 E.09014
G1 X145.971 Y116.815 E.01678
G1 X147.465 Y118.309 E.06641
G1 X146.93 Y118.309 E.01681
G1 X145.971 Y117.35 E.04263
G1 X145.971 Y117.884 E.01678
G1 X146.565 Y118.479 E.02642
M204 S1000
; stop printing object smBoxBottomNum1.stl id:1 copy 0
; printing object smBoxTopNum1.stl id:0 copy 0
;WIPE_START
G1 F8640
G1 X145.971 Y117.884 E-.19413
G1 X145.971 Y117.35 E-.1233
G1 X146.93 Y118.309 E-.31316
G1 X147.465 Y118.309 E-.12353
G1 X147.324 Y118.169 E-.04588
;WIPE_END
G1 Z.6 F720
G1 X144.173 Y124.173 F10800
G1 Z.2 F720
G1 E.8 F2100
M204 S800
;TYPE:Support material
;WIDTH:0.42
G1 F1200
G1 X105.827 Y124.173 E1.20231
G1 X105.827 Y85.827 E1.20231
G1 X144.173 Y85.827 E1.20231
G1 X144.173 Y124.117 E1.20056
M73 P4 R53
M73 Q4 S53
M204 S1000
;WIPE_START
G1 F8640
G1 X144.173 Y120.652 E-.8
;WIPE_END
G1 Z.6 F720
G1 X122.984 Y96.227 F10800
G1 Z.2 F720
G1 E.8 F2100
M204 S800
G1 F1200
G1 X127.047 Y96.229 E.12739
G1 X127.468 Y96.38 E.01402
G1 X127.746 Y96.802 E.01584
G1 X127.777 Y108.893 E.37911
G1 X129.322 Y108.92 E.04845
G1 X129.525 Y109.002 E.00686
G1 X129.783 Y109.245 E.01111
G1 X129.908 Y109.635 E.01284
G1 X129.824 Y110.02 E.01236
G1 X127.873 Y113.399 E.12234
G1 X127.447 Y113.74 E.01711
G1 X122.953 Y113.771 E.14091
G1 X122.532 Y113.62 E.01402
G1 X122.254 Y113.198 E.01584
G1 X122.227 Y96.981 E.50847
G1 X122.282 Y96.701 E.00895
G1 X122.47 Y96.435 E.01021
G1 X122.928 Y96.232 E.01571
M204 S1000
;WIPE_START
G1 F8640
G1 X122.47 Y96.435 E-.11568
G1 X122.282 Y96.701 E-.07521
G1 X122.227 Y96.981 E-.06589
G1 X122.231 Y99.334 E-.54322
;WIPE_END
G1 Z.6 F720
G1 X143.435 Y124.004 F10800
G1 Z.2 F720
G1 E.8 F2100
M204 S800
G1 F1200
G1 X143.435 Y86.166 E1.18638
G1 X143.016 Y86.166 E.01314
G1 X143.016 Y123.834 E1.18105
G1 X142.597 Y123.834 E.01314
G1 X142.597 Y86.166 E1.18105
G1 X142.178 Y86.166 E.01314
G1 X142.178 Y123.834 E1.18105
G1 X141.759 Y123.834 E.01314
G1 X141.759 Y86.166 E1.18105
G1 X141.34 Y86.166 E.01314
M73 P4 R52
G1 X141.34 Y123.834 E1.18105
G1 X140.921 Y123.834 E.01314
G1 X140.921 Y86.166 E1.18105
G1 X140.502 Y86.166 E.01314
G1 X140.502 Y123.834 E1.18105
G1 X140.083 Y123.834 E.01314
G1 X140.083 Y86.166 E1.18105
G1 X139.664 Y86.166 E.01314
G1 X139.664 Y123.834 E1.18105
G1 X139.245 Y123.834 E.01314
G1 X139.245 Y86.166 E1.18105
G1 X138.826 Y86.166 E.01314
G1 X138.826 Y123.834 E1.18105
G1 X138.407 Y123.834 E.01314
G1 X138.407 Y86.166 E1.18105
G1 X137.988 Y86.166 E.01314
G1 X137.988 Y123.834 E1.18105
G1 X137.569 Y123.834 E.01314
M73 P5 R52
M73 Q5 S53
G1 X137.569 Y86.166 E1.18105
G1 X137.15 Y86.166 E.01314
M73 Q5 S52
G1 X137.15 Y123.834 E1.18105
G1 X136.731 Y123.834 E.01314
G1 X136.731 Y86.166 E1.18105
G1 X136.312 Y86.166 E.01314
G1 X136.312 Y123.834 E1.18105
G1 X135.893 Y123.834 E.01314
G1 X135.893 Y86.166 E1.18105
G1 X135.474 Y86.166 E.01314
G1 X135.474 Y123.834 E1.18105
G1 X135.055 Y123.834 E.01314
G1 X135.055 Y86.166 E1.18105
G1 X134.636 Y86.166 E.01314
G1 X134.636 Y123.834 E1.18105
G1 X134.217 Y123.834 E.01314
G1 X134.217 Y86.166 E1.18105
G1 X133.799 Y86.166 E.01311
G1 X133.799 Y123.834 E1.18105
G1 X133.38 Y123.834 E.01314
G1 X133.38 Y86.166 E1.18105
G1 X132.961 Y86.166 E.01314
G1 X132.961 Y123.834 E1.18105
G1 X132.542 Y123.834 E.01314
G1 X132.542 Y86.166 E1.18105
G1 X132.123 Y86.166 E.01314
G1 X132.123 Y123.834 E1.18105
G1 X131.704 Y123.834 E.01314
G1 X131.704 Y86.166 E1.18105
G1 X131.285 Y86.166 E.01314
G1 X131.285 Y123.834 E1.18105
G1 X130.866 Y123.834 E.01314
G1 X130.866 Y86.166 E1.18105
G1 X130.447 Y86.166 E.01314
G1 X130.447 Y123.834 E1.18105
G1 X130.028 Y123.834 E.01314
M73 P6 R52
M73 Q6 S52
G1 X130.028 Y110.347 E.42288
G1 X129.609 Y111.072 E.02626
G1 X129.609 Y123.834 E.40014
G1 X129.19 Y123.834 E.01314
G1 X129.19 Y111.798 E.37738
G1 X128.771 Y112.524 E.02628
G1 X128.771 Y123.834 E.35462
G1 X128.352 Y123.834 E.01314
G1 X128.352 Y113.249 E.33189
G1 X127.933 Y113.848 E.02292
G1 X127.933 Y123.834 E.3131
G1 X127.514 Y123.834 E.01314
G1 X127.514 Y114.073 E.30605
G1 X127.095 Y114.112 E.01319
G1 X127.095 Y123.834 E.30483
G1 X126.676 Y123.834 E.01314
G1 X126.676 Y114.112 E.30483
G1 X126.257 Y114.112 E.01314
G1 X126.257 Y123.834 E.30483
G1 X125.838 Y123.834 E.01314
G1 X125.838 Y114.112 E.30483
G1 X125.419 Y114.112 E.01314
G1 X125.419 Y123.834 E.30483
G1 X125 Y123.834 E.01314
G1 X125 Y114.112 E.30483
G1 X124.581 Y114.112 E.01314
M73 P6 R51
G1 X124.581 Y123.834 E.30483
G1 X124.162 Y123.834 E.01314
G1 X124.162 Y114.112 E.30483
G1 X123.743 Y114.112 E.01314
G1 X123.743 Y123.834 E.30483
G1 X123.324 Y123.834 E.01314
G1 X123.324 Y114.112 E.30483
G1 X122.905 Y114.107 E.01314
G1 X122.905 Y123.834 E.30498
G1 X122.486 Y123.834 E.01314
G1 X122.486 Y113.989 E.30868
G1 X122.067 Y113.603 E.01786
G1 X122.067 Y123.834 E.32079
G1 X121.648 Y123.834 E.01314
G1 X121.648 Y86.166 E1.18105
G1 X122.067 Y86.166 E.01314
G1 X122.067 Y96.397 E.32079
G1 X122.486 Y96.011 E.01786
G1 X122.486 Y86.166 E.30868
G1 X122.905 Y86.166 E.01314
G1 X122.905 Y95.893 E.30498
G1 X123.324 Y95.888 E.01314
G1 X123.324 Y86.166 E.30483
G1 X123.743 Y86.166 E.01314
G1 X123.743 Y95.888 E.30483
G1 X124.162 Y95.888 E.01314
G1 X124.162 Y86.166 E.30483
G1 X124.581 Y86.166 E.01314
G1 X124.581 Y95.888 E.30483
G1 X125 Y95.888 E.01314
G1 X125 Y86.166 E.30483
G1 X125.419 Y86.166 E.01314
G1 X125.419 Y95.888 E.30483
G1 X125.838 Y95.888 E.01314
G1 X125.838 Y86.166 E.30483
G1 X126.257 Y86.166 E.01314
G1 X126.257 Y95.888 E.30483
G1 X126.676 Y95.888 E.01314
G1 X126.676 Y86.166 E.30483
G1 X127.095 Y86.166 E.01314
G1 X127.095 Y95.893 E.30498
G1 X127.514 Y96.011 E.01365
G1 X127.514 Y86.166 E.30868
G1 X127.933 Y86.166 E.01314
G1 X127.933 Y96.397 E.32079
G1 X128.112 Y96.968 E.01876
G1 X128.116 Y108.555 E.3633
G1 X128.352 Y108.555 E.0074
G1 X128.352 Y86.166 E.70199
G1 X128.771 Y86.166 E.01314
G1 X128.771 Y108.556 E.70202
G1 X129.19 Y108.559 E.01314
G1 X129.19 Y86.166 E.70212
G1 X129.609 Y86.166 E.01314
G1 X129.609 Y108.662 E.70535
G1 X130.028 Y109.008 E.01704
G1 X130.028 Y85.996 E.72153
M204 S1000
;WIPE_START
G1 F8640
M73 Q6 S51
G1 X130.028 Y89.461 E-.8
;WIPE_END
G1 Z.6 F720
G1 X121.229 Y124.004 F10800
G1 Z.2 F720
G1 E.8 F2100
M204 S800
G1 F1200
G1 X121.229 Y86.166 E1.18638
G1 X120.81 Y86.166 E.01314
G1 X120.81 Y123.834 E1.18105
G1 X120.391 Y123.834 E.01314
M73 P7 R51
G1 X120.391 Y86.166 E1.18105
G1 X119.972 Y86.166 E.01314
M73 Q7 S51
G1 X119.972 Y123.834 E1.18105
G1 X119.553 Y123.834 E.01314
G1 X119.553 Y86.166 E1.18105
G1 X119.134 Y86.166 E.01314
G1 X119.134 Y123.834 E1.18105
G1 X118.715 Y123.834 E.01314
G1 X118.715 Y86.166 E1.18105
G1 X118.296 Y86.166 E.01314
